( Generated by Carbide Copper )
( Material Size )
( X= 180.000, Y= 180.000, Z= 1.580 )
()
G17
G21
G54
G90
M05
(  )
T121 M06
( Contour )
M03 S10000
G0  X3.755 Y101.099
G0  Z3.000
G01 F400 Z0
G01 F400 Z-0.100
G01F400X3.689 Y101.098
X3.621 Y101.095
X3.554 Y101.091
X3.487 Y101.085
X3.419 Y101.078
X3.352 Y101.069
X3.285 Y101.058
X3.219 Y101.046
X3.155 Y101.033
X3.048 Y101.010
X2.982 Y100.995
X2.916 Y100.978
X2.851 Y100.959
X2.787 Y100.939
X2.723 Y100.918
X2.659 Y100.894
X2.596 Y100.870
X2.534 Y100.844
X2.434 Y100.799
X2.375 Y100.772
X2.314 Y100.743
X2.253 Y100.712
X2.194 Y100.680
X2.135 Y100.646
X2.077 Y100.611
X2.020 Y100.575
X1.964 Y100.537
X1.910 Y100.499
X1.821 Y100.434
X1.768 Y100.395
X1.715 Y100.353
X1.662 Y100.310
X1.611 Y100.266
X1.561 Y100.220
X1.512 Y100.173
X1.464 Y100.126
X1.417 Y100.077
X1.374 Y100.028
X1.300 Y99.947
X1.256 Y99.896
X1.213 Y99.844
X1.172 Y99.791
X1.131 Y99.736
X1.092 Y99.681
X1.054 Y99.625
X1.018 Y99.568
X0.983 Y99.510
X0.928 Y99.416
X0.896 Y99.359
X0.864 Y99.299
X0.833 Y99.239
X0.804 Y99.178
X0.776 Y99.116
X0.750 Y99.053
X0.725 Y98.990
X0.701 Y98.926
X0.680 Y98.864
X0.647 Y98.760
X0.627 Y98.697
X0.608 Y98.632
X0.591 Y98.567
X0.576 Y98.501
X0.562 Y98.434
X0.550 Y98.367
X0.539 Y98.301
X0.530 Y98.234
X0.523 Y98.169
X0.512 Y98.060
X0.506 Y97.993
X0.502 Y97.926
X0.499 Y97.858
X0.499 Y97.791
X0.499 Y3.808
X0.499 Y3.742
X0.502 Y3.674
X0.506 Y3.607
X0.512 Y3.540
X0.523 Y3.431
X0.530 Y3.366
X0.539 Y3.299
X0.550 Y3.233
X0.562 Y3.166
X0.576 Y3.100
X0.591 Y3.033
X0.608 Y2.968
X0.627 Y2.903
X0.647 Y2.840
X0.680 Y2.736
X0.702 Y2.673
X0.725 Y2.609
X0.750 Y2.546
X0.776 Y2.484
X0.804 Y2.422
X0.833 Y2.361
X0.864 Y2.301
X0.896 Y2.241
X0.928 Y2.184
X0.983 Y2.090
X1.018 Y2.032
X1.054 Y1.975
X1.092 Y1.919
X1.131 Y1.864
X1.172 Y1.809
X1.213 Y1.756
X1.256 Y1.704
X1.300 Y1.653
X1.374 Y1.572
X1.417 Y1.523
X1.464 Y1.474
X1.512 Y1.427
X1.561 Y1.380
X1.611 Y1.334
X1.662 Y1.290
X1.715 Y1.247
X1.768 Y1.205
X1.821 Y1.166
X1.910 Y1.101
X1.964 Y1.063
X2.020 Y1.025
X2.077 Y0.989
X2.135 Y0.954
X2.194 Y0.920
X2.253 Y0.888
X2.314 Y0.857
X2.375 Y0.828
X2.434 Y0.801
X2.534 Y0.757
X2.596 Y0.731
X2.659 Y0.706
X2.723 Y0.683
X2.787 Y0.661
X2.851 Y0.641
X2.916 Y0.622
X2.982 Y0.605
X3.048 Y0.590
X3.155 Y0.567
X3.219 Y0.554
X3.285 Y0.542
X3.352 Y0.531
X3.419 Y0.522
X3.487 Y0.515
X3.554 Y0.509
X3.621 Y0.505
X3.689 Y0.502
X3.755 Y0.502
X123.245 Y0.502
X123.311 Y0.502
X123.379 Y0.505
X123.446 Y0.509
X123.514 Y0.515
X123.581 Y0.522
X123.648 Y0.531
X123.715 Y0.542
X123.782 Y0.554
X123.845 Y0.567
X123.953 Y0.590
X124.018 Y0.605
X124.084 Y0.622
X124.149 Y0.641
X124.213 Y0.661
X124.278 Y0.683
X124.341 Y0.706
X124.404 Y0.731
X124.466 Y0.757
X124.566 Y0.801
X124.626 Y0.828
X124.686 Y0.857
X124.747 Y0.888
X124.806 Y0.920
X124.865 Y0.954
X124.923 Y0.989
X124.980 Y1.025
X125.036 Y1.063
X125.091 Y1.101
X125.179 Y1.166
X125.232 Y1.205
X125.285 Y1.247
X125.338 Y1.290
X125.389 Y1.334
X125.439 Y1.380
X125.488 Y1.427
X125.536 Y1.474
X125.583 Y1.523
X125.627 Y1.572
X125.700 Y1.653
X125.744 Y1.704
X125.787 Y1.756
X125.828 Y1.809
X125.869 Y1.864
X125.908 Y1.919
X125.946 Y1.975
X125.982 Y2.032
X126.017 Y2.090
X126.072 Y2.184
X126.104 Y2.241
X126.136 Y2.301
X126.167 Y2.361
X126.196 Y2.422
X126.224 Y2.484
X126.251 Y2.546
X126.275 Y2.609
X126.298 Y2.673
X126.320 Y2.736
X126.354 Y2.840
X126.373 Y2.903
X126.392 Y2.968
X126.409 Y3.033
X126.424 Y3.100
X126.438 Y3.166
X126.450 Y3.233
X126.461 Y3.299
X126.470 Y3.366
X126.477 Y3.431
X126.488 Y3.540
X126.494 Y3.607
X126.498 Y3.674
X126.501 Y3.742
X126.501 Y3.808
X126.501 Y97.791
X126.501 Y97.858
X126.498 Y97.926
X126.494 Y97.993
X126.488 Y98.060
X126.477 Y98.169
X126.470 Y98.234
X126.461 Y98.301
X126.450 Y98.367
X126.438 Y98.434
X126.424 Y98.501
X126.409 Y98.567
X126.392 Y98.632
X126.373 Y98.697
X126.354 Y98.760
X126.320 Y98.865
X126.298 Y98.927
X126.275 Y98.991
X126.251 Y99.053
X126.224 Y99.116
X126.196 Y99.178
X126.167 Y99.239
X126.136 Y99.299
X126.104 Y99.359
X126.072 Y99.416
X126.017 Y99.510
X125.982 Y99.568
X125.946 Y99.625
X125.908 Y99.681
X125.869 Y99.736
X125.828 Y99.791
X125.787 Y99.844
X125.744 Y99.896
X125.700 Y99.947
X125.627 Y100.028
X125.583 Y100.077
X125.536 Y100.126
X125.488 Y100.173
X125.439 Y100.220
X125.389 Y100.266
X125.338 Y100.310
X125.285 Y100.353
X125.232 Y100.395
X125.179 Y100.434
X125.091 Y100.499
X125.036 Y100.537
X124.980 Y100.575
X124.923 Y100.611
X124.865 Y100.646
X124.806 Y100.680
X124.747 Y100.712
X124.686 Y100.743
X124.626 Y100.772
X124.566 Y100.799
X124.466 Y100.843
X124.404 Y100.870
X124.341 Y100.894
X124.278 Y100.917
X124.213 Y100.939
X124.149 Y100.959
X124.083 Y100.978
X124.011 Y100.997
X123.953 Y101.010
X123.845 Y101.033
X123.782 Y101.046
X123.715 Y101.058
X123.648 Y101.069
X123.581 Y101.078
X123.514 Y101.085
X123.446 Y101.091
X123.379 Y101.095
X123.311 Y101.098
X123.245 Y101.099
X100.249 Y101.099
X100.091 Y101.065
X99.944 Y100.999
X99.813 Y100.904
X99.705 Y100.784
X99.624 Y100.644
X99.574 Y100.491
X99.559 Y100.344
X99.559 Y98.053
X91.177 Y98.053
X91.177 Y83.319
X78.659 Y83.319
X78.501 Y83.285
X78.354 Y83.219
X78.223 Y83.124
X78.115 Y83.004
X78.034 Y82.864
X77.984 Y82.711
X77.969 Y82.564
X77.969 Y71.254
X74.841 Y71.254
X74.558 Y71.535
X74.487 Y71.598
X74.365 Y71.638
X73.767 Y71.638
X73.666 Y71.628
X73.560 Y71.567
X73.249 Y71.256
X73.248 Y71.254
X72.470 Y71.254
X71.909 Y71.584
X71.087 Y71.371
X70.656 Y70.639
X70.869 Y69.817
X71.601 Y69.386
X72.423 Y69.599
X72.492 Y69.716
X73.249 Y69.716
X73.249 Y69.715
X73.570 Y69.395
X73.709 Y69.333
X74.379 Y69.333
X74.518 Y69.395
X74.838 Y69.716
X78.821 Y69.716
X78.979 Y69.750
X79.126 Y69.816
X79.257 Y69.911
X79.365 Y70.031
X79.446 Y70.171
X79.496 Y70.324
X79.511 Y70.471
X79.511 Y81.782
X91.177 Y81.782
X91.177 Y79.747
X109.483 Y79.747
X109.483 Y98.053
X101.101 Y98.053
X101.101 Y99.562
X123.137 Y99.562
X123.137 Y99.562
X123.189 Y99.561
X123.247 Y99.559
X123.303 Y99.555
X123.358 Y99.551
X123.410 Y99.545
X123.467 Y99.538
X123.521 Y99.529
X123.558 Y99.522
X123.575 Y99.518
X123.632 Y99.503
X123.685 Y99.488
X123.737 Y99.472
X123.786 Y99.456
X123.843 Y99.435
X123.893 Y99.415
X123.910 Y99.408
X123.947 Y99.390
X123.994 Y99.366
X124.044 Y99.339
X124.088 Y99.314
X124.137 Y99.284
X124.184 Y99.254
X124.237 Y99.218
X124.276 Y99.188
X124.318 Y99.153
X124.361 Y99.116
X124.402 Y99.079
X124.438 Y99.044
X124.482 Y99.001
X124.505 Y98.976
X124.519 Y98.960
X124.556 Y98.915
X124.587 Y98.875
X124.621 Y98.830
X124.653 Y98.784
X124.684 Y98.738
X124.712 Y98.694
X124.724 Y98.674
X124.742 Y98.642
X124.768 Y98.590
X124.791 Y98.543
X124.813 Y98.492
X124.835 Y98.442
X124.854 Y98.392
X124.876 Y98.331
X124.891 Y98.279
X124.904 Y98.229
X124.916 Y98.175
X124.927 Y98.124
X124.938 Y98.065
X124.946 Y98.013
X124.951 Y97.976
X124.953 Y97.956
X124.956 Y97.900
X124.958 Y97.842
X124.959 Y97.787
X124.959 Y3.813
X124.958 Y3.759
X124.956 Y3.700
X124.953 Y3.642
X124.951 Y3.625
X124.946 Y3.584
X124.938 Y3.535
X124.927 Y3.475
X124.916 Y3.425
X124.904 Y3.371
X124.890 Y3.319
X124.872 Y3.256
X124.855 Y3.209
X124.835 Y3.159
X124.813 Y3.107
X124.791 Y3.058
X124.766 Y3.005
X124.740 Y2.956
X124.724 Y2.926
X124.711 Y2.905
X124.684 Y2.862
X124.653 Y2.816
X124.620 Y2.768
X124.587 Y2.725
X124.556 Y2.685
X124.517 Y2.638
X124.505 Y2.625
X124.480 Y2.598
X124.440 Y2.558
X124.400 Y2.520
X124.362 Y2.485
X124.318 Y2.447
X124.277 Y2.413
X124.224 Y2.373
X124.185 Y2.346
X124.119 Y2.305
X124.088 Y2.286
X124.044 Y2.261
X123.993 Y2.233
X123.946 Y2.209
X123.910 Y2.192
X123.893 Y2.185
X123.842 Y2.165
X123.789 Y2.146
X123.737 Y2.128
X123.685 Y2.112
X123.632 Y2.097
X123.577 Y2.082
X123.559 Y2.078
X123.521 Y2.071
X123.466 Y2.062
X123.410 Y2.055
X123.358 Y2.049
X123.303 Y2.045
X123.247 Y2.041
X123.189 Y2.039
X123.138 Y2.038
X123.138 Y2.038
X3.863 Y2.038
X3.863 Y2.038
X3.811 Y2.039
X3.753 Y2.041
X3.697 Y2.045
X3.642 Y2.049
X3.590 Y2.055
X3.533 Y2.063
X3.479 Y2.071
X3.442 Y2.078
X3.425 Y2.082
X3.368 Y2.097
X3.315 Y2.112
X3.263 Y2.128
X3.214 Y2.144
X3.158 Y2.165
X3.107 Y2.185
X3.090 Y2.192
X3.053 Y2.210
X3.006 Y2.234
X2.956 Y2.261
X2.912 Y2.286
X2.863 Y2.316
X2.816 Y2.346
X2.763 Y2.382
X2.724 Y2.412
X2.682 Y2.447
X2.640 Y2.483
X2.598 Y2.521
X2.562 Y2.556
X2.518 Y2.599
X2.495 Y2.624
X2.481 Y2.640
X2.444 Y2.685
X2.413 Y2.725
X2.381 Y2.768
X2.347 Y2.816
X2.316 Y2.862
X2.289 Y2.905
X2.276 Y2.926
X2.258 Y2.959
X2.232 Y3.010
X2.209 Y3.057
X2.187 Y3.108
X2.166 Y3.158
X2.147 Y3.206
X2.124 Y3.269
X2.109 Y3.321
X2.096 Y3.371
X2.084 Y3.425
X2.073 Y3.475
X2.062 Y3.535
X2.054 Y3.584
X2.049 Y3.624
X2.047 Y3.644
X2.044 Y3.700
X2.042 Y3.759
X2.041 Y3.813
X2.041 Y97.787
X2.042 Y97.842
X2.044 Y97.900
X2.047 Y97.957
X2.049 Y97.975
X2.054 Y98.015
X2.062 Y98.065
X2.073 Y98.124
X2.084 Y98.175
X2.096 Y98.229
X2.110 Y98.282
X2.128 Y98.344
X2.145 Y98.391
X2.165 Y98.442
X2.187 Y98.494
X2.209 Y98.541
X2.233 Y98.592
X2.259 Y98.644
X2.276 Y98.674
X2.285 Y98.690
X2.316 Y98.738
X2.347 Y98.784
X2.379 Y98.830
X2.413 Y98.875
X2.444 Y98.915
X2.482 Y98.961
X2.495 Y98.975
X2.521 Y99.003
X2.562 Y99.044
X2.598 Y99.079
X2.639 Y99.116
X2.682 Y99.153
X2.722 Y99.186
X2.776 Y99.227
X2.813 Y99.253
X2.863 Y99.284
X2.912 Y99.314
X2.956 Y99.339
X3.006 Y99.366
X3.054 Y99.390
X3.090 Y99.408
X3.108 Y99.416
X3.160 Y99.436
X3.213 Y99.455
X3.265 Y99.473
X3.315 Y99.488
X3.370 Y99.504
X3.422 Y99.517
X3.442 Y99.522
X3.479 Y99.529
X3.533 Y99.537
X3.591 Y99.545
X3.646 Y99.551
X3.697 Y99.555
X3.753 Y99.559
X3.811 Y99.561
X3.863 Y99.562
X3.863 Y99.562
X28.439 Y99.562
X28.439 Y94.094
X28.211 Y94.035
X27.567 Y92.941
X27.885 Y91.711
X28.979 Y91.067
X30.209 Y91.385
X30.853 Y92.479
X30.535 Y93.709
X29.981 Y94.035
X29.981 Y99.562
X42.409 Y99.562
X42.409 Y77.456
X42.424 Y77.309
X42.474 Y77.156
X42.555 Y77.016
X42.663 Y76.896
X42.794 Y76.801
X42.941 Y76.735
X43.099 Y76.702
X46.762 Y76.702
X46.762 Y75.752
X48.488 Y75.752
X48.488 Y76.702
X51.934 Y76.702
X51.934 Y46.976
X51.949 Y46.829
X51.999 Y46.676
X52.080 Y46.536
X52.188 Y46.416
X52.319 Y46.321
X52.466 Y46.255
X52.624 Y46.221
X52.786 Y46.221
X52.944 Y46.255
X53.091 Y46.321
X53.222 Y46.416
X53.320 Y46.525
X56.684 Y46.525
X56.684 Y24.116
X56.692 Y24.033
X56.723 Y23.940
X56.772 Y23.855
X56.837 Y23.782
X56.916 Y23.725
X57.005 Y23.685
X57.101 Y23.665
X59.506 Y23.665
X59.551 Y23.586
X59.681 Y23.443
X59.837 Y23.329
X60.014 Y23.250
X60.203 Y23.210
X61.717 Y23.210
X61.906 Y23.250
X62.083 Y23.329
X62.239 Y23.443
X62.258 Y23.463
X64.840 Y23.463
X64.977 Y23.492
X65.106 Y23.549
X65.219 Y23.631
X65.313 Y23.736
X65.383 Y23.857
X65.426 Y23.991
X65.440 Y24.116
X65.440 Y26.003
X69.180 Y26.003
X69.180 Y22.257
X68.262 Y22.257
X68.251 Y22.299
X67.474 Y22.757
X66.601 Y22.531
X66.143 Y21.754
X66.369 Y20.881
X67.146 Y20.423
X68.019 Y20.649
X68.181 Y20.923
X69.920 Y20.923
X70.057 Y20.952
X70.186 Y21.009
X70.299 Y21.091
X70.393 Y21.196
X70.463 Y21.317
X70.506 Y21.451
X70.520 Y21.576
X70.520 Y26.684
X70.506 Y26.809
X70.463 Y26.943
X70.393 Y27.065
X70.299 Y27.169
X70.186 Y27.251
X70.057 Y27.308
X69.920 Y27.337
X64.700 Y27.337
X64.563 Y27.308
X64.434 Y27.251
X64.321 Y27.169
X64.227 Y27.065
X64.157 Y26.943
X64.114 Y26.809
X64.100 Y26.684
X64.100 Y24.797
X62.258 Y24.797
X62.239 Y24.818
X62.083 Y24.931
X61.906 Y25.010
X61.717 Y25.050
X60.203 Y25.050
X60.014 Y25.010
X59.837 Y24.931
X59.681 Y24.818
X59.551 Y24.674
X59.506 Y24.595
X57.616 Y24.595
X57.616 Y47.004
X57.608 Y47.087
X57.577 Y47.180
X57.529 Y47.265
X57.463 Y47.338
X57.384 Y47.395
X57.295 Y47.435
X57.199 Y47.455
X53.476 Y47.455
X53.476 Y77.484
X53.461 Y77.631
X53.411 Y77.784
X53.330 Y77.924
X53.222 Y78.044
X53.091 Y78.139
X52.944 Y78.205
X52.786 Y78.239
X52.624 Y78.239
X52.466 Y78.205
X52.388 Y78.170
X52.309 Y78.205
X52.151 Y78.239
X43.951 Y78.239
X43.951 Y100.344
X43.936 Y100.491
X43.886 Y100.644
X43.805 Y100.784
X43.697 Y100.904
X43.566 Y100.999
X43.419 Y101.065
X43.261 Y101.099
X3.755 Y101.099
G0 Z3.000
G0  X54.347 Y98.053
G0  Z3.000
G01 F400 Z0
G01 F400 Z-0.100
G01F400X54.347 Y79.747
X72.653 Y79.747
X72.653 Y95.752
X86.224 Y95.752
X86.224 Y92.973
X84.192 Y92.973
X84.192 Y87.367
X89.798 Y87.367
X89.798 Y92.973
X87.766 Y92.973
X87.766 Y96.534
X87.751 Y96.681
X87.701 Y96.834
X87.620 Y96.974
X87.512 Y97.094
X87.381 Y97.189
X87.234 Y97.255
X87.076 Y97.288
X72.653 Y97.288
X72.653 Y98.053
X54.347 Y98.053
G0 Z3.000
G0  X74.032 Y92.973
G0  Z3.000
G01 F400 Z0
G01 F400 Z-0.100
G01F400X74.032 Y87.367
X75.429 Y87.367
X75.429 Y75.699
X66.594 Y75.699
X66.436 Y75.665
X66.289 Y75.599
X66.158 Y75.504
X66.050 Y75.384
X65.969 Y75.244
X65.919 Y75.091
X65.904 Y74.944
X65.904 Y68.713
X65.033 Y68.713
X65.033 Y68.843
X61.967 Y68.843
X61.967 Y67.047
X65.033 Y67.047
X65.033 Y67.177
X66.756 Y67.177
X66.914 Y67.210
X67.061 Y67.276
X67.192 Y67.371
X67.300 Y67.491
X67.381 Y67.631
X67.431 Y67.784
X67.446 Y67.931
X67.446 Y74.162
X76.281 Y74.162
X76.439 Y74.195
X76.586 Y74.261
X76.717 Y74.356
X76.825 Y74.476
X76.906 Y74.616
X76.956 Y74.769
X76.971 Y74.916
X76.971 Y87.367
X79.638 Y87.367
X79.638 Y92.973
X74.032 Y92.973
G0 Z3.000
G0  X110.862 Y92.973
G0  Z3.000
G01 F400 Z0
G01 F400 Z-0.100
G01F400X110.862 Y87.367
X116.468 Y87.367
X116.468 Y92.973
X110.862 Y92.973
G0 Z3.000
G0  X47.362 Y92.973
G0  Z3.000
G01 F400 Z0
G01 F400 Z-0.100
G01F400X47.362 Y87.367
X52.968 Y87.367
X52.968 Y92.973
X47.362 Y92.973
G0 Z3.000
G0  X24.361 Y89.273
G0  Z3.000
G01 F400 Z0
G01 F400 Z-0.100
G01F400X23.131 Y88.955
X22.487 Y87.861
X22.805 Y86.631
X23.899 Y85.987
X25.129 Y86.305
X25.457 Y86.862
X32.905 Y86.862
X32.965 Y86.631
X34.059 Y85.987
X35.289 Y86.305
X35.617 Y86.862
X37.329 Y86.862
X37.329 Y73.646
X37.344 Y73.499
X37.394 Y73.346
X37.475 Y73.206
X37.583 Y73.086
X37.714 Y72.991
X37.861 Y72.925
X38.019 Y72.892
X49.394 Y72.892
X49.394 Y44.436
X49.409 Y44.289
X49.459 Y44.136
X49.540 Y43.996
X49.648 Y43.876
X49.779 Y43.781
X49.926 Y43.715
X50.084 Y43.681
X50.246 Y43.681
X50.404 Y43.715
X50.551 Y43.781
X50.682 Y43.876
X50.780 Y43.985
X55.414 Y43.985
X55.414 Y9.355
X54.794 Y9.355
X54.749 Y9.434
X54.619 Y9.578
X54.463 Y9.691
X54.286 Y9.770
X54.097 Y9.810
X52.583 Y9.810
X52.394 Y9.770
X52.217 Y9.691
X52.061 Y9.578
X51.931 Y9.434
X51.835 Y9.266
X51.775 Y9.082
X51.755 Y8.890
X51.775 Y8.698
X51.835 Y8.514
X51.931 Y8.346
X52.061 Y8.203
X52.217 Y8.089
X52.394 Y8.010
X52.583 Y7.970
X54.097 Y7.970
X54.286 Y8.010
X54.463 Y8.089
X54.619 Y8.203
X54.749 Y8.346
X54.794 Y8.425
X55.929 Y8.425
X56.025 Y8.445
X56.114 Y8.485
X56.193 Y8.542
X56.259 Y8.615
X56.307 Y8.700
X56.338 Y8.793
X56.346 Y8.876
X56.346 Y44.464
X56.338 Y44.547
X56.307 Y44.640
X56.259 Y44.725
X56.193 Y44.798
X56.114 Y44.855
X56.025 Y44.895
X55.929 Y44.915
X50.936 Y44.915
X50.936 Y73.674
X50.921 Y73.821
X50.871 Y73.974
X50.790 Y74.114
X50.682 Y74.234
X50.551 Y74.329
X50.404 Y74.395
X50.246 Y74.428
X48.488 Y74.428
X48.488 Y75.378
X46.762 Y75.378
X46.762 Y74.428
X38.871 Y74.428
X38.871 Y87.644
X38.856 Y87.791
X38.806 Y87.944
X38.725 Y88.084
X38.617 Y88.204
X38.486 Y88.299
X38.339 Y88.365
X38.181 Y88.398
X35.675 Y88.398
X35.615 Y88.629
X34.521 Y89.273
X33.291 Y88.955
X32.963 Y88.398
X25.515 Y88.398
X25.455 Y88.629
X24.361 Y89.273
G0 Z3.000
G0  X92.447 Y77.733
G0  Z3.000
G01 F400 Z0
G01 F400 Z-0.100
G01F400X92.447 Y71.889
X81.199 Y71.889
X81.041 Y71.855
X80.894 Y71.789
X80.763 Y71.694
X80.655 Y71.574
X80.574 Y71.434
X80.524 Y71.281
X80.509 Y71.134
X80.509 Y35.059
X62.128 Y35.059
X62.083 Y35.091
X61.906 Y35.170
X61.717 Y35.210
X60.203 Y35.210
X60.014 Y35.170
X59.837 Y35.091
X59.681 Y34.977
X59.551 Y34.834
X59.455 Y34.666
X59.395 Y34.482
X59.375 Y34.290
X59.395 Y34.098
X59.455 Y33.914
X59.551 Y33.746
X59.681 Y33.602
X59.837 Y33.489
X60.014 Y33.410
X60.203 Y33.370
X61.717 Y33.370
X61.906 Y33.410
X62.083 Y33.489
X62.128 Y33.522
X81.361 Y33.522
X81.519 Y33.555
X81.666 Y33.621
X81.797 Y33.716
X81.905 Y33.836
X81.986 Y33.976
X82.036 Y34.129
X82.051 Y34.276
X82.051 Y70.352
X92.447 Y70.352
X92.447 Y64.507
X123.453 Y64.507
X123.453 Y77.733
X92.447 Y77.733
G0 Z3.000
G0  X3.547 Y77.733
G0  Z3.000
G01 F400 Z0
G01 F400 Z-0.100
G01F400X3.547 Y64.507
X34.553 Y64.507
X34.553 Y70.352
X46.219 Y70.352
X46.219 Y16.496
X46.234 Y16.349
X46.284 Y16.196
X46.365 Y16.056
X46.473 Y15.936
X46.604 Y15.841
X46.751 Y15.775
X46.909 Y15.742
X52.172 Y15.742
X52.217 Y15.709
X52.394 Y15.630
X52.583 Y15.590
X54.097 Y15.590
X54.286 Y15.630
X54.463 Y15.709
X54.619 Y15.823
X54.749 Y15.966
X54.846 Y16.134
X54.905 Y16.318
X54.925 Y16.510
X54.905 Y16.702
X54.846 Y16.886
X54.749 Y17.054
X54.619 Y17.198
X54.463 Y17.311
X54.286 Y17.390
X54.097 Y17.430
X52.583 Y17.430
X52.394 Y17.390
X52.217 Y17.311
X52.172 Y17.279
X47.761 Y17.279
X47.761 Y71.134
X47.746 Y71.281
X47.696 Y71.434
X47.615 Y71.574
X47.507 Y71.694
X47.376 Y71.789
X47.229 Y71.855
X47.071 Y71.889
X34.553 Y71.889
X34.553 Y77.733
X3.547 Y77.733
G0 Z3.000
G0  X56.887 Y71.383
G0  Z3.000
G01 F400 Z0
G01 F400 Z-0.100
G01F400X56.887 Y69.587
X59.953 Y69.587
X59.953 Y71.383
X56.887 Y71.383
G0 Z3.000
G0  X61.967 Y71.383
G0  Z3.000
G01 F400 Z0
G01 F400 Z-0.100
G01F400X61.967 Y69.587
X65.033 Y69.587
X65.033 Y71.383
X61.967 Y71.383
G0 Z3.000
G0  X56.887 Y68.843
G0  Z3.000
G01 F400 Z0
G01 F400 Z-0.100
G01F400X56.887 Y67.047
X59.953 Y67.047
X59.953 Y68.843
X56.887 Y68.843
G0 Z3.000
G0  X71.919 Y66.572
G0  Z3.000
G01 F400 Z0
G01 F400 Z-0.100
G01F400X71.046 Y66.346
X70.885 Y66.072
X65.033 Y66.072
X65.033 Y66.303
X61.967 Y66.303
X61.967 Y64.507
X62.830 Y64.507
X62.830 Y61.425
X58.371 Y61.425
X58.275 Y61.405
X58.186 Y61.365
X58.107 Y61.308
X58.042 Y61.235
X57.993 Y61.150
X57.962 Y61.057
X57.954 Y60.974
X57.951 Y26.890
X57.946 Y26.881
X57.913 Y26.778
X57.901 Y26.670
X57.913 Y26.562
X57.946 Y26.459
X58.000 Y26.365
X58.073 Y26.285
X58.161 Y26.221
X58.260 Y26.177
X58.364 Y26.155
X59.543 Y26.140
X59.551 Y26.126
X59.681 Y25.983
X59.837 Y25.869
X60.014 Y25.790
X60.203 Y25.750
X61.717 Y25.750
X61.906 Y25.790
X62.083 Y25.869
X62.239 Y25.983
X62.369 Y26.126
X62.466 Y26.294
X62.525 Y26.478
X62.546 Y26.670
X62.525 Y26.862
X62.466 Y27.046
X62.369 Y27.214
X62.239 Y27.358
X62.083 Y27.471
X61.906 Y27.550
X61.717 Y27.590
X60.203 Y27.590
X60.014 Y27.550
X59.837 Y27.471
X59.681 Y27.358
X59.549 Y27.212
X59.535 Y27.186
X58.886 Y27.186
X58.886 Y60.495
X62.830 Y60.495
X62.830 Y55.575
X62.783 Y55.562
X62.319 Y54.776
X62.548 Y53.893
X62.895 Y53.688
X62.957 Y53.581
X63.051 Y53.476
X63.165 Y53.394
X63.293 Y53.337
X63.430 Y53.308
X63.570 Y53.308
X63.707 Y53.337
X63.836 Y53.394
X63.949 Y53.476
X64.043 Y53.581
X64.065 Y53.618
X64.218 Y53.658
X64.681 Y54.444
X64.452 Y55.328
X64.170 Y55.494
X64.170 Y64.507
X65.033 Y64.507
X65.033 Y64.738
X70.803 Y64.738
X70.814 Y64.696
X71.591 Y64.238
X72.464 Y64.464
X72.922 Y65.241
X72.696 Y66.114
X71.919 Y66.572
G0 Z3.000
G0  X73.496 Y66.558
G0  Z3.000
G01 F400 Z0
G01 F400 Z-0.100
G01F400X73.395 Y66.548
X73.270 Y66.476
X73.186 Y66.360
X73.156 Y66.219
X73.186 Y66.079
X73.279 Y65.951
X73.437 Y65.880
X73.496 Y65.880
X73.249 Y65.634
X73.186 Y65.546
X73.162 Y65.433
X73.162 Y64.836
X73.186 Y64.723
X73.249 Y64.635
X73.570 Y64.315
X73.709 Y64.253
X74.379 Y64.253
X74.518 Y64.315
X74.868 Y64.667
X74.924 Y64.792
X74.924 Y64.935
X74.865 Y65.066
X74.790 Y65.135
X74.867 Y65.204
X74.916 Y65.137
X75.075 Y65.067
X75.341 Y65.067
X75.341 Y64.836
X75.365 Y64.723
X75.450 Y64.607
X75.574 Y64.535
X75.717 Y64.520
X75.853 Y64.564
X75.971 Y64.670
X76.020 Y64.822
X76.020 Y65.067
X76.273 Y65.067
X76.396 Y65.107
X76.502 Y65.203
X76.561 Y65.334
X76.561 Y65.478
X76.502 Y65.609
X76.396 Y65.705
X76.273 Y65.745
X76.019 Y65.745
X76.019 Y66.020
X75.960 Y66.151
X75.853 Y66.247
X75.717 Y66.291
X75.574 Y66.276
X75.450 Y66.205
X75.365 Y66.088
X75.341 Y65.976
X75.341 Y65.745
X75.133 Y65.745
X75.032 Y65.734
X74.925 Y65.672
X74.924 Y66.291
X74.865 Y66.422
X74.759 Y66.518
X74.636 Y66.558
X73.496 Y66.558
G0 Z3.000
G0  X56.887 Y66.303
G0  Z3.000
G01 F400 Z0
G01 F400 Z-0.100
G01F400X56.887 Y64.507
X59.953 Y64.507
X59.953 Y66.303
X56.887 Y66.303
G0 Z3.000
G0  X73.913 Y65.338
G0  Z3.000
G01 F400 Z0
G01 F400 Z-0.100
G01F400X73.963 Y65.338
X74.376 Y65.132
X74.373 Y65.131
X74.174 Y64.931
X73.912 Y64.931
X73.840 Y65.002
X73.840 Y65.264
X73.913 Y65.338
G0 Z3.000
G0  X71.919 Y64.032
G0  Z3.000
G01 F400 Z0
G01 F400 Z-0.100
G01F400X71.046 Y63.806
X70.885 Y63.532
X69.145 Y63.532
X69.008 Y63.503
X68.880 Y63.446
X68.766 Y63.364
X68.672 Y63.260
X68.602 Y63.138
X68.559 Y63.005
X68.545 Y62.879
X68.545 Y40.037
X62.258 Y40.037
X62.239 Y40.058
X62.083 Y40.171
X61.906 Y40.250
X61.717 Y40.290
X60.203 Y40.290
X60.014 Y40.250
X59.837 Y40.171
X59.681 Y40.058
X59.551 Y39.914
X59.455 Y39.746
X59.395 Y39.562
X59.375 Y39.370
X59.395 Y39.178
X59.455 Y38.994
X59.551 Y38.826
X59.681 Y38.683
X59.837 Y38.569
X60.014 Y38.490
X60.203 Y38.450
X61.717 Y38.450
X61.906 Y38.490
X62.083 Y38.569
X62.239 Y38.683
X62.258 Y38.703
X69.285 Y38.703
X69.422 Y38.732
X69.550 Y38.789
X69.664 Y38.871
X69.758 Y38.976
X69.828 Y39.097
X69.871 Y39.230
X69.885 Y39.356
X69.885 Y62.198
X70.803 Y62.198
X70.814 Y62.156
X71.591 Y61.698
X72.464 Y61.924
X72.922 Y62.701
X72.696 Y63.574
X71.919 Y64.032
G0 Z3.000
G0  X75.133 Y64.018
G0  Z3.000
G01 F400 Z0
G01 F400 Z-0.100
G01F400X75.032 Y64.008
X74.907 Y63.936
X74.823 Y63.820
X74.793 Y63.679
X74.823 Y63.539
X74.916 Y63.411
X75.075 Y63.340
X75.341 Y63.340
X75.341 Y62.025
X75.365 Y61.912
X75.450 Y61.796
X75.574 Y61.724
X75.717 Y61.709
X75.853 Y61.753
X75.971 Y61.859
X76.020 Y62.011
X76.019 Y63.340
X76.273 Y63.340
X76.396 Y63.380
X76.502 Y63.476
X76.561 Y63.607
X76.561 Y63.751
X76.502 Y63.882
X76.396 Y63.978
X76.273 Y64.018
X75.133 Y64.018
G0 Z3.000
G0  X73.537 Y63.480
G0  Z3.000
G01 F400 Z0
G01 F400 Z-0.100
G01F400X73.395 Y63.465
X73.270 Y63.394
X73.186 Y63.277
X73.156 Y63.137
X73.186 Y62.996
X73.249 Y62.909
X73.564 Y62.595
X73.249 Y62.280
X73.186 Y62.193
X73.156 Y62.052
X73.186 Y61.912
X73.270 Y61.796
X73.395 Y61.724
X73.552 Y61.707
X73.704 Y61.775
X74.044 Y62.115
X74.373 Y61.785
X74.479 Y61.724
X74.622 Y61.709
X74.759 Y61.753
X74.865 Y61.849
X74.924 Y61.980
X74.924 Y62.139
X74.847 Y62.271
X74.523 Y62.595
X74.868 Y62.941
X74.924 Y63.065
X74.924 Y63.209
X74.865 Y63.340
X74.759 Y63.436
X74.622 Y63.480
X74.479 Y63.465
X74.373 Y63.404
X74.042 Y63.073
X73.681 Y63.434
X73.537 Y63.480
G0 Z3.000
G0  X92.447 Y62.493
G0  Z3.000
G01 F400 Z0
G01 F400 Z-0.100
G01F400X92.447 Y56.649
X83.739 Y56.649
X83.581 Y56.615
X83.434 Y56.549
X83.303 Y56.454
X83.195 Y56.334
X83.114 Y56.194
X83.064 Y56.041
X83.049 Y55.894
X83.049 Y32.519
X62.128 Y32.519
X62.083 Y32.551
X61.906 Y32.630
X61.717 Y32.670
X60.203 Y32.670
X60.014 Y32.630
X59.837 Y32.551
X59.681 Y32.438
X59.551 Y32.294
X59.455 Y32.126
X59.395 Y31.942
X59.375 Y31.750
X59.395 Y31.558
X59.455 Y31.374
X59.551 Y31.206
X59.681 Y31.063
X59.837 Y30.949
X60.014 Y30.870
X60.203 Y30.830
X61.717 Y30.830
X61.906 Y30.870
X62.083 Y30.949
X62.128 Y30.982
X83.901 Y30.982
X84.059 Y31.015
X84.206 Y31.081
X84.337 Y31.176
X84.445 Y31.296
X84.526 Y31.436
X84.576 Y31.589
X84.591 Y31.736
X84.591 Y55.112
X92.447 Y55.112
X92.447 Y49.267
X123.453 Y49.267
X123.453 Y62.493
X92.447 Y62.493
G0 Z3.000
G0  X3.547 Y62.493
G0  Z3.000
G01 F400 Z0
G01 F400 Z-0.100
G01F400X3.547 Y49.267
X34.553 Y49.267
X34.553 Y55.112
X43.679 Y55.112
X43.679 Y13.956
X43.694 Y13.809
X43.744 Y13.656
X43.825 Y13.516
X43.933 Y13.396
X44.064 Y13.301
X44.211 Y13.235
X44.369 Y13.202
X52.172 Y13.202
X52.217 Y13.169
X52.394 Y13.090
X52.583 Y13.050
X54.097 Y13.050
X54.286 Y13.090
X54.463 Y13.169
X54.619 Y13.283
X54.749 Y13.426
X54.846 Y13.594
X54.905 Y13.778
X54.925 Y13.970
X54.905 Y14.162
X54.846 Y14.346
X54.749 Y14.514
X54.619 Y14.658
X54.463 Y14.771
X54.286 Y14.850
X54.097 Y14.890
X52.583 Y14.890
X52.394 Y14.850
X52.217 Y14.771
X52.172 Y14.739
X45.221 Y14.739
X45.221 Y55.894
X45.206 Y56.041
X45.156 Y56.194
X45.075 Y56.334
X44.967 Y56.454
X44.836 Y56.549
X44.689 Y56.615
X44.531 Y56.649
X34.553 Y56.649
X34.553 Y62.493
X3.547 Y62.493
G0 Z3.000
G0  X71.919 Y61.492
G0  Z3.000
G01 F400 Z0
G01 F400 Z-0.100
G01F400X71.046 Y61.266
X70.588 Y60.489
X70.814 Y59.616
X71.591 Y59.158
X72.464 Y59.384
X72.626 Y59.658
X73.189 Y59.658
X73.186 Y59.653
X73.156 Y59.512
X73.186 Y59.372
X73.270 Y59.256
X73.395 Y59.184
X73.552 Y59.167
X73.704 Y59.235
X74.044 Y59.575
X74.373 Y59.245
X74.479 Y59.184
X74.622 Y59.169
X74.759 Y59.213
X74.865 Y59.309
X74.867 Y59.312
X74.907 Y59.256
X75.032 Y59.184
X75.189 Y59.167
X75.341 Y59.235
X75.530 Y59.425
X75.530 Y37.497
X62.258 Y37.497
X62.239 Y37.517
X62.083 Y37.631
X61.906 Y37.710
X61.717 Y37.750
X60.203 Y37.750
X60.014 Y37.710
X59.837 Y37.631
X59.681 Y37.517
X59.551 Y37.374
X59.455 Y37.206
X59.395 Y37.022
X59.375 Y36.830
X59.395 Y36.638
X59.455 Y36.454
X59.551 Y36.286
X59.681 Y36.142
X59.837 Y36.029
X60.014 Y35.950
X60.203 Y35.910
X61.717 Y35.910
X61.906 Y35.950
X62.083 Y36.029
X62.239 Y36.142
X62.258 Y36.163
X76.270 Y36.163
X76.407 Y36.192
X76.535 Y36.249
X76.649 Y36.331
X76.743 Y36.436
X76.813 Y36.557
X76.856 Y36.691
X76.870 Y36.816
X76.870 Y60.339
X76.856 Y60.465
X76.813 Y60.598
X76.743 Y60.720
X76.649 Y60.824
X76.561 Y60.888
X76.561 Y61.124
X76.561 Y61.211
X76.502 Y61.342
X76.396 Y61.438
X76.273 Y61.478
X75.404 Y61.478
X75.303 Y61.468
X75.197 Y61.407
X74.887 Y61.096
X74.823 Y61.009
X74.820 Y60.992
X72.707 Y60.992
X72.696 Y61.034
X71.919 Y61.492
G0 Z3.000
G0  X71.919 Y58.952
G0  Z3.000
G01 F400 Z0
G01 F400 Z-0.100
G01F400X71.046 Y58.726
X70.588 Y57.949
X70.814 Y57.076
X71.085 Y56.916
X71.062 Y52.078
X70.765 Y51.574
X70.957 Y50.833
X71.616 Y50.445
X72.357 Y50.637
X72.745 Y51.296
X72.553 Y52.037
X72.425 Y52.113
X72.425 Y56.834
X72.464 Y56.844
X72.922 Y57.621
X72.696 Y58.494
X71.919 Y58.952
G0 Z3.000
G0  X73.767 Y58.938
G0  Z3.000
G01 F400 Z0
G01 F400 Z-0.100
G01F400X73.666 Y58.928
X73.560 Y58.867
X73.249 Y58.556
X73.186 Y58.469
X73.162 Y58.356
X73.162 Y57.758
X73.186 Y57.645
X73.249 Y57.558
X73.428 Y57.379
X73.249 Y57.200
X73.186 Y57.113
X73.156 Y56.972
X73.186 Y56.832
X73.270 Y56.716
X73.395 Y56.644
X73.552 Y56.627
X73.704 Y56.695
X74.184 Y57.175
X74.247 Y57.175
X74.247 Y56.945
X74.270 Y56.832
X74.355 Y56.716
X74.479 Y56.644
X74.622 Y56.629
X74.759 Y56.673
X74.876 Y56.779
X74.925 Y56.931
X74.924 Y58.584
X74.924 Y58.671
X74.865 Y58.802
X74.759 Y58.898
X74.636 Y58.938
X73.767 Y58.938
G0 Z3.000
G0  X73.913 Y58.260
G0  Z3.000
G01 F400 Z0
G01 F400 Z-0.100
G01F400X74.247 Y58.260
X74.247 Y57.854
X73.912 Y57.854
X73.840 Y57.925
X73.840 Y58.187
X73.913 Y58.260
G0 Z3.000
G0  X66.814 Y52.425
G0  Z3.000
G01 F400 Z0
G01 F400 Z-0.100
G01F400X66.073 Y52.233
X65.685 Y51.574
X65.877 Y50.833
X66.005 Y50.758
X66.005 Y45.117
X64.465 Y45.117
X64.452 Y45.168
X63.666 Y45.631
X62.783 Y45.402
X62.615 Y45.117
X60.890 Y45.117
X60.753 Y45.088
X60.625 Y45.031
X60.511 Y44.949
X60.417 Y44.845
X60.347 Y44.723
X60.304 Y44.590
X60.290 Y44.464
X60.290 Y42.830
X60.203 Y42.830
X60.014 Y42.790
X59.837 Y42.711
X59.681 Y42.598
X59.551 Y42.454
X59.455 Y42.286
X59.395 Y42.102
X59.375 Y41.910
X59.395 Y41.718
X59.455 Y41.534
X59.551 Y41.366
X59.681 Y41.223
X59.837 Y41.109
X60.014 Y41.030
X60.203 Y40.990
X61.717 Y40.990
X61.906 Y41.030
X62.083 Y41.109
X62.239 Y41.223
X62.369 Y41.366
X62.466 Y41.534
X62.525 Y41.718
X62.546 Y41.910
X62.525 Y42.102
X62.466 Y42.286
X62.369 Y42.454
X62.239 Y42.598
X62.083 Y42.711
X61.906 Y42.790
X61.717 Y42.830
X61.630 Y42.830
X61.630 Y43.783
X62.535 Y43.783
X62.548 Y43.733
X63.334 Y43.269
X64.218 Y43.498
X64.385 Y43.783
X66.745 Y43.783
X66.882 Y43.812
X67.011 Y43.869
X67.124 Y43.951
X67.218 Y44.056
X67.288 Y44.177
X67.331 Y44.311
X67.345 Y44.436
X67.368 Y50.792
X67.665 Y51.296
X67.473 Y52.037
X66.814 Y52.425
G0 Z3.000
G0  X92.447 Y47.253
G0  Z3.000
G01 F400 Z0
G01 F400 Z-0.100
G01F400X92.447 Y41.409
X86.279 Y41.409
X86.121 Y41.375
X85.974 Y41.309
X85.843 Y41.214
X85.735 Y41.094
X85.654 Y40.954
X85.604 Y40.801
X85.589 Y40.654
X85.589 Y29.979
X62.128 Y29.979
X62.083 Y30.011
X61.906 Y30.090
X61.717 Y30.130
X60.203 Y30.130
X60.014 Y30.090
X59.837 Y30.011
X59.681 Y29.898
X59.551 Y29.754
X59.455 Y29.586
X59.395 Y29.402
X59.375 Y29.210
X59.395 Y29.018
X59.455 Y28.834
X59.551 Y28.666
X59.681 Y28.523
X59.837 Y28.409
X60.014 Y28.330
X60.203 Y28.290
X61.717 Y28.290
X61.906 Y28.330
X62.083 Y28.409
X62.128 Y28.442
X86.441 Y28.442
X86.599 Y28.475
X86.746 Y28.541
X86.877 Y28.636
X86.985 Y28.756
X87.066 Y28.896
X87.116 Y29.049
X87.131 Y29.196
X87.131 Y39.872
X92.447 Y39.872
X92.447 Y34.027
X123.453 Y34.027
X123.453 Y47.253
X92.447 Y47.253
G0 Z3.000
G0  X3.547 Y47.253
G0  Z3.000
G01 F400 Z0
G01 F400 Z-0.100
G01F400X3.547 Y34.027
X34.553 Y34.027
X34.553 Y39.872
X41.139 Y39.872
X41.139 Y11.416
X41.154 Y11.269
X41.204 Y11.116
X41.285 Y10.976
X41.393 Y10.856
X41.524 Y10.761
X41.671 Y10.695
X41.829 Y10.662
X52.172 Y10.662
X52.217 Y10.629
X52.394 Y10.550
X52.583 Y10.510
X54.097 Y10.510
X54.286 Y10.550
X54.463 Y10.629
X54.619 Y10.742
X54.749 Y10.886
X54.846 Y11.054
X54.905 Y11.238
X54.925 Y11.430
X54.905 Y11.622
X54.846 Y11.806
X54.749 Y11.974
X54.619 Y12.117
X54.463 Y12.231
X54.286 Y12.310
X54.097 Y12.350
X52.583 Y12.350
X52.394 Y12.310
X52.217 Y12.231
X52.172 Y12.199
X42.681 Y12.199
X42.681 Y40.654
X42.666 Y40.801
X42.616 Y40.954
X42.535 Y41.094
X42.427 Y41.214
X42.296 Y41.309
X42.149 Y41.375
X41.991 Y41.409
X34.553 Y41.409
X34.553 Y47.253
X3.547 Y47.253
G0 Z3.000
G0  X52.583 Y42.830
G0  Z3.000
G01 F400 Z0
G01 F400 Z-0.100
G01F400X52.394 Y42.790
X52.217 Y42.711
X52.061 Y42.598
X51.931 Y42.454
X51.835 Y42.286
X51.775 Y42.102
X51.755 Y41.910
X51.775 Y41.718
X51.835 Y41.534
X51.931 Y41.366
X52.061 Y41.223
X52.217 Y41.109
X52.394 Y41.030
X52.583 Y40.990
X54.097 Y40.990
X54.286 Y41.030
X54.463 Y41.109
X54.619 Y41.223
X54.749 Y41.366
X54.846 Y41.534
X54.905 Y41.718
X54.925 Y41.910
X54.905 Y42.102
X54.846 Y42.286
X54.749 Y42.454
X54.619 Y42.598
X54.463 Y42.711
X54.286 Y42.790
X54.097 Y42.830
X52.583 Y42.830
G0 Z3.000
G0  X52.583 Y40.290
G0  Z3.000
G01 F400 Z0
G01 F400 Z-0.100
G01F400X52.394 Y40.250
X52.217 Y40.171
X52.061 Y40.058
X51.931 Y39.914
X51.835 Y39.746
X51.775 Y39.562
X51.755 Y39.370
X51.775 Y39.178
X51.835 Y38.994
X51.931 Y38.826
X52.061 Y38.683
X52.217 Y38.569
X52.394 Y38.490
X52.583 Y38.450
X54.097 Y38.450
X54.286 Y38.490
X54.463 Y38.569
X54.619 Y38.683
X54.749 Y38.826
X54.846 Y38.994
X54.905 Y39.178
X54.925 Y39.370
X54.905 Y39.562
X54.846 Y39.746
X54.749 Y39.914
X54.619 Y40.058
X54.463 Y40.171
X54.286 Y40.250
X54.097 Y40.290
X52.583 Y40.290
G0 Z3.000
G0  X52.583 Y37.750
G0  Z3.000
G01 F400 Z0
G01 F400 Z-0.100
G01F400X52.394 Y37.710
X52.217 Y37.631
X52.061 Y37.517
X51.931 Y37.374
X51.835 Y37.206
X51.775 Y37.022
X51.755 Y36.830
X51.775 Y36.638
X51.835 Y36.454
X51.931 Y36.286
X52.061 Y36.142
X52.217 Y36.029
X52.394 Y35.950
X52.583 Y35.910
X54.097 Y35.910
X54.286 Y35.950
X54.463 Y36.029
X54.619 Y36.142
X54.749 Y36.286
X54.846 Y36.454
X54.905 Y36.638
X54.925 Y36.830
X54.905 Y37.022
X54.846 Y37.206
X54.749 Y37.374
X54.619 Y37.517
X54.463 Y37.631
X54.286 Y37.710
X54.097 Y37.750
X52.583 Y37.750
G0 Z3.000
G0  X52.583 Y35.210
G0  Z3.000
G01 F400 Z0
G01 F400 Z-0.100
G01F400X52.394 Y35.170
X52.217 Y35.091
X52.061 Y34.977
X51.931 Y34.834
X51.835 Y34.666
X51.775 Y34.482
X51.755 Y34.290
X51.775 Y34.098
X51.835 Y33.914
X51.931 Y33.746
X52.061 Y33.602
X52.217 Y33.489
X52.394 Y33.410
X52.583 Y33.370
X54.097 Y33.370
X54.286 Y33.410
X54.463 Y33.489
X54.619 Y33.602
X54.749 Y33.746
X54.846 Y33.914
X54.905 Y34.098
X54.925 Y34.290
X54.905 Y34.482
X54.846 Y34.666
X54.749 Y34.834
X54.619 Y34.977
X54.463 Y35.091
X54.286 Y35.170
X54.097 Y35.210
X52.583 Y35.210
G0 Z3.000
G0  X52.583 Y32.670
G0  Z3.000
G01 F400 Z0
G01 F400 Z-0.100
G01F400X52.394 Y32.630
X52.217 Y32.551
X52.061 Y32.438
X51.931 Y32.294
X51.835 Y32.126
X51.775 Y31.942
X51.755 Y31.750
X51.775 Y31.558
X51.835 Y31.374
X51.931 Y31.206
X52.061 Y31.063
X52.217 Y30.949
X52.394 Y30.870
X52.583 Y30.830
X54.097 Y30.830
X54.286 Y30.870
X54.463 Y30.949
X54.619 Y31.063
X54.749 Y31.206
X54.846 Y31.374
X54.905 Y31.558
X54.925 Y31.750
X54.905 Y31.942
X54.846 Y32.126
X54.749 Y32.294
X54.619 Y32.438
X54.463 Y32.551
X54.286 Y32.630
X54.097 Y32.670
X52.583 Y32.670
G0 Z3.000
G0  X3.547 Y32.013
G0  Z3.000
G01 F400 Z0
G01 F400 Z-0.100
G01F400X3.547 Y18.787
X34.553 Y18.787
X34.553 Y24.632
X38.599 Y24.632
X38.599 Y6.336
X38.614 Y6.189
X38.664 Y6.036
X38.745 Y5.896
X38.853 Y5.776
X38.984 Y5.681
X39.131 Y5.615
X39.289 Y5.582
X64.851 Y5.582
X65.009 Y5.615
X65.156 Y5.681
X65.287 Y5.776
X65.395 Y5.896
X65.476 Y6.036
X65.526 Y6.189
X65.541 Y6.336
X65.541 Y8.904
X65.526 Y9.051
X65.476 Y9.204
X65.395 Y9.344
X65.287 Y9.464
X65.156 Y9.559
X65.009 Y9.625
X64.851 Y9.659
X62.128 Y9.659
X62.083 Y9.691
X61.906 Y9.770
X61.717 Y9.810
X60.203 Y9.810
X60.014 Y9.770
X59.837 Y9.691
X59.681 Y9.578
X59.551 Y9.434
X59.455 Y9.266
X59.395 Y9.082
X59.375 Y8.890
X59.395 Y8.698
X59.455 Y8.514
X59.551 Y8.346
X59.681 Y8.203
X59.837 Y8.089
X60.014 Y8.010
X60.203 Y7.970
X61.717 Y7.970
X61.906 Y8.010
X62.083 Y8.089
X62.128 Y8.122
X63.999 Y8.122
X63.999 Y7.119
X40.141 Y7.119
X40.141 Y25.414
X40.126 Y25.561
X40.076 Y25.714
X39.995 Y25.854
X39.887 Y25.974
X39.756 Y26.069
X39.609 Y26.135
X39.451 Y26.169
X34.553 Y26.169
X34.553 Y32.013
X3.547 Y32.013
G0 Z3.000
G0  X92.447 Y32.013
G0  Z3.000
G01 F400 Z0
G01 F400 Z-0.100
G01F400X92.447 Y26.169
X88.819 Y26.169
X88.661 Y26.135
X88.514 Y26.069
X88.383 Y25.974
X88.275 Y25.854
X88.194 Y25.714
X88.144 Y25.561
X88.129 Y25.414
X88.129 Y17.279
X62.128 Y17.279
X62.083 Y17.311
X61.906 Y17.390
X61.717 Y17.430
X60.203 Y17.430
X60.014 Y17.390
X59.837 Y17.311
X59.681 Y17.198
X59.551 Y17.054
X59.455 Y16.886
X59.395 Y16.702
X59.375 Y16.510
X59.395 Y16.318
X59.455 Y16.134
X59.551 Y15.966
X59.681 Y15.823
X59.837 Y15.709
X60.014 Y15.630
X60.203 Y15.590
X61.717 Y15.590
X61.906 Y15.630
X62.083 Y15.709
X62.128 Y15.742
X88.981 Y15.742
X89.139 Y15.775
X89.286 Y15.841
X89.417 Y15.936
X89.525 Y16.056
X89.606 Y16.196
X89.656 Y16.349
X89.671 Y16.496
X89.671 Y24.632
X92.447 Y24.632
X92.447 Y18.787
X123.453 Y18.787
X123.453 Y32.013
X92.447 Y32.013
G0 Z3.000
G0  X52.583 Y30.130
G0  Z3.000
G01 F400 Z0
G01 F400 Z-0.100
G01F400X52.394 Y30.090
X52.217 Y30.011
X52.061 Y29.898
X51.931 Y29.754
X51.835 Y29.586
X51.775 Y29.402
X51.755 Y29.210
X51.775 Y29.018
X51.835 Y28.834
X51.931 Y28.666
X52.061 Y28.523
X52.217 Y28.409
X52.394 Y28.330
X52.583 Y28.290
X54.097 Y28.290
X54.286 Y28.330
X54.463 Y28.409
X54.619 Y28.523
X54.749 Y28.666
X54.846 Y28.834
X54.905 Y29.018
X54.925 Y29.210
X54.905 Y29.402
X54.846 Y29.586
X54.749 Y29.754
X54.619 Y29.898
X54.463 Y30.011
X54.286 Y30.090
X54.097 Y30.130
X52.583 Y30.130
G0 Z3.000
G0  X52.583 Y27.590
G0  Z3.000
G01 F400 Z0
G01 F400 Z-0.100
G01F400X52.394 Y27.550
X52.217 Y27.471
X52.061 Y27.358
X51.931 Y27.214
X51.835 Y27.046
X51.775 Y26.862
X51.755 Y26.670
X51.775 Y26.478
X51.835 Y26.294
X51.931 Y26.126
X52.061 Y25.983
X52.217 Y25.869
X52.394 Y25.790
X52.583 Y25.750
X54.097 Y25.750
X54.286 Y25.790
X54.463 Y25.869
X54.619 Y25.983
X54.749 Y26.126
X54.846 Y26.294
X54.905 Y26.478
X54.925 Y26.670
X54.905 Y26.862
X54.846 Y27.046
X54.749 Y27.214
X54.619 Y27.358
X54.463 Y27.471
X54.286 Y27.550
X54.097 Y27.590
X52.583 Y27.590
G0 Z3.000
G0  X67.474 Y25.297
G0  Z3.000
G01 F400 Z0
G01 F400 Z-0.100
G01F400X66.601 Y25.071
X66.143 Y24.294
X66.250 Y23.879
X63.971 Y22.055
X62.414 Y22.055
X62.369 Y22.134
X62.239 Y22.277
X62.083 Y22.391
X61.906 Y22.470
X61.717 Y22.510
X60.203 Y22.510
X60.014 Y22.470
X59.837 Y22.391
X59.681 Y22.277
X59.551 Y22.134
X59.455 Y21.966
X59.395 Y21.782
X59.375 Y21.590
X59.395 Y21.398
X59.455 Y21.214
X59.551 Y21.046
X59.681 Y20.902
X59.837 Y20.789
X60.014 Y20.710
X60.203 Y20.670
X61.717 Y20.670
X61.906 Y20.710
X62.083 Y20.789
X62.239 Y20.902
X62.369 Y21.046
X62.414 Y21.125
X64.184 Y21.125
X64.280 Y21.145
X64.369 Y21.185
X64.431 Y21.230
X66.830 Y23.149
X67.146 Y22.963
X68.019 Y23.189
X68.477 Y23.966
X68.251 Y24.839
X67.474 Y25.297
G0 Z3.000
G0  X52.583 Y25.050
G0  Z3.000
G01 F400 Z0
G01 F400 Z-0.100
G01F400X52.394 Y25.010
X52.217 Y24.931
X52.061 Y24.818
X51.931 Y24.674
X51.835 Y24.506
X51.775 Y24.322
X51.755 Y24.130
X51.775 Y23.938
X51.835 Y23.754
X51.931 Y23.586
X52.061 Y23.443
X52.217 Y23.329
X52.394 Y23.250
X52.583 Y23.210
X54.097 Y23.210
X54.286 Y23.250
X54.463 Y23.329
X54.619 Y23.443
X54.749 Y23.586
X54.846 Y23.754
X54.905 Y23.938
X54.925 Y24.130
X54.905 Y24.322
X54.846 Y24.506
X54.749 Y24.674
X54.619 Y24.818
X54.463 Y24.931
X54.286 Y25.010
X54.097 Y25.050
X52.583 Y25.050
G0 Z3.000
G0  X52.583 Y22.510
G0  Z3.000
G01 F400 Z0
G01 F400 Z-0.100
G01F400X52.394 Y22.470
X52.217 Y22.391
X52.061 Y22.277
X51.931 Y22.134
X51.835 Y21.966
X51.775 Y21.782
X51.755 Y21.590
X51.775 Y21.398
X51.835 Y21.214
X51.931 Y21.046
X52.061 Y20.902
X52.217 Y20.789
X52.394 Y20.710
X52.583 Y20.670
X54.097 Y20.670
X54.286 Y20.710
X54.463 Y20.789
X54.619 Y20.902
X54.749 Y21.046
X54.846 Y21.214
X54.905 Y21.398
X54.925 Y21.590
X54.905 Y21.782
X54.846 Y21.966
X54.749 Y22.134
X54.619 Y22.277
X54.463 Y22.391
X54.286 Y22.470
X54.097 Y22.510
X52.583 Y22.510
G0 Z3.000
G0  X67.474 Y20.217
G0  Z3.000
G01 F400 Z0
G01 F400 Z-0.100
G01F400X66.601 Y19.991
X66.440 Y19.717
X62.258 Y19.717
X62.239 Y19.738
X62.083 Y19.851
X61.906 Y19.930
X61.717 Y19.970
X60.203 Y19.970
X60.014 Y19.930
X59.837 Y19.851
X59.681 Y19.738
X59.551 Y19.594
X59.455 Y19.426
X59.395 Y19.242
X59.375 Y19.050
X59.395 Y18.858
X59.455 Y18.674
X59.551 Y18.506
X59.681 Y18.363
X59.837 Y18.249
X60.014 Y18.170
X60.203 Y18.130
X61.717 Y18.130
X61.906 Y18.170
X62.083 Y18.249
X62.239 Y18.363
X62.258 Y18.383
X66.358 Y18.383
X66.369 Y18.341
X67.146 Y17.883
X68.019 Y18.109
X68.477 Y18.886
X68.251 Y19.759
X67.474 Y20.217
G0 Z3.000
G0  X52.583 Y19.970
G0  Z3.000
G01 F400 Z0
G01 F400 Z-0.100
G01F400X52.394 Y19.930
X52.217 Y19.851
X52.061 Y19.738
X51.931 Y19.594
X51.835 Y19.426
X51.775 Y19.242
X51.755 Y19.050
X51.775 Y18.858
X51.835 Y18.674
X51.931 Y18.506
X52.061 Y18.363
X52.217 Y18.249
X52.394 Y18.170
X52.583 Y18.130
X54.097 Y18.130
X54.286 Y18.170
X54.463 Y18.249
X54.619 Y18.363
X54.749 Y18.506
X54.846 Y18.674
X54.905 Y18.858
X54.925 Y19.050
X54.905 Y19.242
X54.846 Y19.426
X54.749 Y19.594
X54.619 Y19.738
X54.463 Y19.851
X54.286 Y19.930
X54.097 Y19.970
X52.583 Y19.970
G0 Z3.000
G0  X3.547 Y16.773
G0  Z3.000
G01 F400 Z0
G01 F400 Z-0.100
G01F400X3.547 Y3.547
X34.553 Y3.547
X34.553 Y9.392
X36.059 Y9.392
X36.059 Y3.796
X36.074 Y3.649
X36.124 Y3.496
X36.205 Y3.356
X36.313 Y3.236
X36.444 Y3.141
X36.591 Y3.075
X36.749 Y3.042
X68.661 Y3.042
X68.819 Y3.075
X68.966 Y3.141
X69.097 Y3.236
X69.205 Y3.356
X69.286 Y3.496
X69.336 Y3.649
X69.351 Y3.796
X69.351 Y11.444
X69.336 Y11.591
X69.286 Y11.744
X69.205 Y11.884
X69.097 Y12.004
X68.966 Y12.099
X68.819 Y12.165
X68.661 Y12.199
X62.128 Y12.199
X62.083 Y12.231
X61.906 Y12.310
X61.717 Y12.350
X60.203 Y12.350
X60.014 Y12.310
X59.837 Y12.231
X59.681 Y12.117
X59.551 Y11.974
X59.455 Y11.806
X59.395 Y11.622
X59.375 Y11.430
X59.395 Y11.238
X59.455 Y11.054
X59.551 Y10.886
X59.681 Y10.742
X59.837 Y10.629
X60.014 Y10.550
X60.203 Y10.510
X61.717 Y10.510
X61.906 Y10.550
X62.083 Y10.629
X62.128 Y10.662
X67.809 Y10.662
X67.809 Y4.579
X37.601 Y4.579
X37.601 Y10.174
X37.586 Y10.321
X37.536 Y10.474
X37.455 Y10.614
X37.347 Y10.734
X37.216 Y10.829
X37.069 Y10.895
X36.911 Y10.928
X34.553 Y10.928
X34.553 Y16.773
X3.547 Y16.773
G0 Z3.000
G0  X92.447 Y16.773
G0  Z3.000
G01 F400 Z0
G01 F400 Z-0.100
G01F400X92.447 Y10.928
X71.891 Y10.928
X71.891 Y13.984
X71.876 Y14.131
X71.826 Y14.284
X71.745 Y14.424
X71.637 Y14.544
X71.506 Y14.639
X71.359 Y14.705
X71.201 Y14.739
X62.128 Y14.739
X62.083 Y14.771
X61.906 Y14.850
X61.717 Y14.890
X60.203 Y14.890
X60.014 Y14.850
X59.837 Y14.771
X59.681 Y14.658
X59.551 Y14.514
X59.455 Y14.346
X59.395 Y14.162
X59.375 Y13.970
X59.395 Y13.778
X59.455 Y13.594
X59.551 Y13.426
X59.681 Y13.283
X59.837 Y13.169
X60.014 Y13.090
X60.203 Y13.050
X61.717 Y13.050
X61.906 Y13.090
X62.083 Y13.169
X62.128 Y13.202
X70.349 Y13.202
X70.349 Y10.146
X70.364 Y9.999
X70.414 Y9.846
X70.495 Y9.706
X70.603 Y9.586
X70.734 Y9.491
X70.881 Y9.425
X71.039 Y9.392
X71.173 Y9.392
X92.447 Y9.392
X92.447 Y3.547
X123.453 Y3.547
X123.453 Y16.773
X92.447 Y16.773
G0 Z3.000
G0  X3.753 Y101.572
G0  Z3.000
G01 F400 Z0
G01 F400 Z-0.100
G01F400X3.678 Y101.571
X3.598 Y101.569
X3.519 Y101.564
X3.441 Y101.557
X3.362 Y101.549
X3.283 Y101.538
X3.206 Y101.526
X3.128 Y101.511
X3.057 Y101.497
X2.944 Y101.473
X2.868 Y101.455
X2.792 Y101.435
X2.716 Y101.413
X2.640 Y101.390
X2.565 Y101.365
X2.491 Y101.337
X2.418 Y101.309
X2.346 Y101.279
X2.240 Y101.231
X2.174 Y101.202
X2.104 Y101.168
X2.033 Y101.132
X1.963 Y101.094
X1.894 Y101.055
X1.827 Y101.014
X1.760 Y100.971
X1.695 Y100.927
X1.634 Y100.884
X1.540 Y100.816
X1.480 Y100.771
X1.418 Y100.723
X1.357 Y100.672
X1.297 Y100.620
X1.238 Y100.567
X1.181 Y100.512
X1.125 Y100.457
X1.070 Y100.399
X1.022 Y100.346
X0.945 Y100.261
X0.894 Y100.202
X0.844 Y100.141
X0.795 Y100.078
X0.748 Y100.015
X0.702 Y99.950
X0.658 Y99.884
X0.615 Y99.818
X0.575 Y99.752
X0.518 Y99.652
X0.482 Y99.590
X0.444 Y99.519
X0.408 Y99.449
X0.374 Y99.378
X0.341 Y99.305
X0.310 Y99.232
X0.282 Y99.159
X0.254 Y99.084
X0.231 Y99.014
X0.195 Y98.904
X0.173 Y98.833
X0.151 Y98.757
X0.131 Y98.680
X0.113 Y98.603
X0.097 Y98.525
X0.083 Y98.447
X0.071 Y98.370
X0.060 Y98.291
X0.052 Y98.219
X0.040 Y98.105
X0.034 Y98.028
X0.029 Y97.949
X0.026 Y97.869
X0.025 Y97.794
X0.025 Y3.806
X0.026 Y3.731
X0.029 Y3.651
X0.034 Y3.572
X0.040 Y3.495
X0.052 Y3.381
X0.060 Y3.309
X0.071 Y3.230
X0.083 Y3.153
X0.097 Y3.076
X0.113 Y2.997
X0.131 Y2.920
X0.151 Y2.843
X0.173 Y2.767
X0.195 Y2.696
X0.231 Y2.586
X0.255 Y2.516
X0.282 Y2.442
X0.310 Y2.368
X0.341 Y2.295
X0.374 Y2.222
X0.408 Y2.151
X0.444 Y2.080
X0.482 Y2.011
X0.517 Y1.949
X0.575 Y1.848
X0.615 Y1.782
X0.658 Y1.716
X0.702 Y1.650
X0.748 Y1.585
X0.795 Y1.522
X0.844 Y1.460
X0.894 Y1.398
X0.945 Y1.339
X1.022 Y1.254
X1.070 Y1.201
X1.125 Y1.143
X1.181 Y1.088
X1.238 Y1.033
X1.297 Y0.980
X1.357 Y0.928
X1.418 Y0.877
X1.480 Y0.829
X1.540 Y0.784
X1.633 Y0.716
X1.694 Y0.673
X1.760 Y0.629
X1.827 Y0.586
X1.894 Y0.545
X1.963 Y0.506
X2.033 Y0.468
X2.104 Y0.432
X2.174 Y0.398
X2.240 Y0.369
X2.346 Y0.322
X2.418 Y0.292
X2.491 Y0.263
X2.565 Y0.236
X2.640 Y0.210
X2.716 Y0.187
X2.792 Y0.165
X2.868 Y0.145
X2.944 Y0.127
X3.057 Y0.103
X3.128 Y0.089
X3.206 Y0.074
X3.283 Y0.062
X3.362 Y0.052
X3.441 Y0.043
X3.519 Y0.036
X3.598 Y0.032
X3.678 Y0.029
X3.753 Y0.028
X123.248 Y0.028
X123.323 Y0.029
X123.402 Y0.032
X123.481 Y0.036
X123.559 Y0.043
X123.638 Y0.052
X123.717 Y0.062
X123.794 Y0.074
X123.872 Y0.089
X123.943 Y0.103
X124.056 Y0.127
X124.132 Y0.145
X124.208 Y0.165
X124.284 Y0.187
X124.360 Y0.210
X124.435 Y0.236
X124.509 Y0.263
X124.582 Y0.292
X124.654 Y0.322
X124.760 Y0.369
X124.826 Y0.398
X124.896 Y0.432
X124.967 Y0.468
X125.037 Y0.506
X125.106 Y0.546
X125.173 Y0.586
X125.240 Y0.629
X125.306 Y0.673
X125.367 Y0.716
X125.460 Y0.784
X125.520 Y0.828
X125.582 Y0.877
X125.644 Y0.928
X125.703 Y0.980
X125.762 Y1.033
X125.819 Y1.088
X125.875 Y1.143
X125.930 Y1.201
X125.978 Y1.254
X126.055 Y1.339
X126.106 Y1.398
X126.156 Y1.459
X126.205 Y1.522
X126.252 Y1.585
X126.298 Y1.650
X126.343 Y1.716
X126.385 Y1.782
X126.425 Y1.848
X126.483 Y1.949
X126.518 Y2.011
X126.556 Y2.080
X126.592 Y2.151
X126.626 Y2.222
X126.659 Y2.295
X126.690 Y2.368
X126.718 Y2.442
X126.745 Y2.516
X126.769 Y2.586
X126.805 Y2.696
X126.827 Y2.767
X126.849 Y2.843
X126.869 Y2.920
X126.887 Y2.997
X126.903 Y3.076
X126.917 Y3.153
X126.930 Y3.230
X126.940 Y3.309
X126.948 Y3.381
X126.960 Y3.495
X126.967 Y3.572
X126.971 Y3.651
X126.974 Y3.731
X126.975 Y3.806
X126.975 Y97.794
X126.974 Y97.869
X126.971 Y97.949
X126.967 Y98.028
X126.960 Y98.105
X126.948 Y98.219
X126.940 Y98.291
X126.930 Y98.370
X126.917 Y98.447
X126.903 Y98.525
X126.887 Y98.603
X126.869 Y98.680
X126.849 Y98.757
X126.827 Y98.833
X126.805 Y98.904
X126.769 Y99.014
X126.745 Y99.084
X126.718 Y99.159
X126.690 Y99.232
X126.659 Y99.305
X126.626 Y99.378
X126.592 Y99.449
X126.556 Y99.520
X126.518 Y99.589
X126.483 Y99.651
X126.425 Y99.752
X126.385 Y99.818
X126.343 Y99.884
X126.298 Y99.950
X126.252 Y100.015
X126.205 Y100.078
X126.156 Y100.141
X126.106 Y100.202
X126.055 Y100.261
X125.978 Y100.346
X125.930 Y100.399
X125.875 Y100.457
X125.819 Y100.512
X125.762 Y100.567
X125.703 Y100.620
X125.643 Y100.672
X125.582 Y100.723
X125.520 Y100.771
X125.460 Y100.816
X125.367 Y100.884
X125.306 Y100.927
X125.240 Y100.971
X125.173 Y101.014
X125.106 Y101.055
X125.037 Y101.094
X124.967 Y101.132
X124.896 Y101.168
X124.826 Y101.202
X124.760 Y101.231
X124.654 Y101.278
X124.582 Y101.309
X124.509 Y101.337
X124.435 Y101.364
X124.360 Y101.390
X124.284 Y101.413
X124.208 Y101.435
X124.124 Y101.457
X124.056 Y101.473
X123.943 Y101.497
X123.872 Y101.511
X123.794 Y101.526
X123.717 Y101.538
X123.638 Y101.549
X123.559 Y101.557
X123.481 Y101.564
X123.402 Y101.569
X123.323 Y101.571
X123.248 Y101.572
X100.199 Y101.572
X99.944 Y101.518
X99.705 Y101.412
X99.494 Y101.258
X99.320 Y101.064
X99.189 Y100.838
X99.108 Y100.590
X99.085 Y100.369
X99.085 Y98.527
X90.703 Y98.527
X90.703 Y83.792
X78.609 Y83.792
X78.354 Y83.738
X78.115 Y83.632
X77.904 Y83.478
X77.730 Y83.284
X77.599 Y83.058
X77.518 Y82.810
X77.495 Y82.589
X77.495 Y71.727
X75.036 Y71.727
X74.883 Y71.879
X74.730 Y72.018
X74.439 Y72.112
X73.742 Y72.112
X73.516 Y72.088
X73.269 Y71.946
X73.050 Y71.727
X72.600 Y71.727
X71.981 Y72.092
X70.779 Y71.781
X70.148 Y70.711
X70.459 Y69.508
X71.529 Y68.878
X72.732 Y69.189
X72.763 Y69.243
X73.052 Y69.243
X73.297 Y68.998
X73.608 Y68.859
X74.479 Y68.859
X74.791 Y68.998
X75.035 Y69.243
X78.871 Y69.243
X79.126 Y69.297
X79.365 Y69.403
X79.576 Y69.557
X79.751 Y69.751
X79.881 Y69.977
X79.962 Y70.225
X79.985 Y70.446
X79.985 Y81.308
X90.703 Y81.308
X90.703 Y79.273
X109.957 Y79.273
X109.957 Y98.527
X101.575 Y98.527
X101.575 Y99.088
X123.140 Y99.088
X123.177 Y99.087
X123.223 Y99.086
X123.268 Y99.083
X123.312 Y99.079
X123.356 Y99.074
X123.398 Y99.069
X123.440 Y99.062
X123.460 Y99.058
X123.465 Y99.057
X123.506 Y99.047
X123.549 Y99.035
X123.592 Y99.021
X123.628 Y99.009
X123.676 Y98.991
X123.714 Y98.976
X123.738 Y98.965
X123.774 Y98.946
X123.814 Y98.925
X123.848 Y98.905
X123.888 Y98.881
X123.922 Y98.859
X123.956 Y98.836
X123.980 Y98.818
X124.012 Y98.791
X124.048 Y98.760
X124.080 Y98.731
X124.104 Y98.708
X124.144 Y98.668
X124.154 Y98.657
X124.157 Y98.653
X124.186 Y98.619
X124.211 Y98.586
X124.238 Y98.551
X124.264 Y98.514
X124.288 Y98.478
X124.310 Y98.443
X124.312 Y98.440
X124.325 Y98.417
X124.342 Y98.382
X124.361 Y98.343
X124.379 Y98.302
X124.396 Y98.263
X124.410 Y98.226
X124.424 Y98.187
X124.433 Y98.156
X124.444 Y98.116
X124.454 Y98.072
X124.462 Y98.034
X124.471 Y97.983
X124.477 Y97.944
X124.480 Y97.927
X124.480 Y97.921
X124.483 Y97.875
X124.485 Y97.830
X124.485 Y97.782
X124.485 Y3.818
X124.485 Y3.770
X124.483 Y3.724
X124.480 Y3.677
X124.477 Y3.651
X124.471 Y3.617
X124.462 Y3.566
X124.454 Y3.528
X124.444 Y3.484
X124.433 Y3.443
X124.422 Y3.404
X124.412 Y3.378
X124.396 Y3.337
X124.379 Y3.298
X124.362 Y3.259
X124.341 Y3.215
X124.319 Y3.172
X124.313 Y3.162
X124.310 Y3.157
X124.287 Y3.120
X124.264 Y3.087
X124.235 Y3.046
X124.212 Y3.014
X124.186 Y2.982
X124.155 Y2.944
X124.141 Y2.929
X124.106 Y2.894
X124.079 Y2.868
X124.049 Y2.841
X124.012 Y2.809
X123.979 Y2.782
X123.947 Y2.757
X123.928 Y2.745
X123.867 Y2.706
X123.850 Y2.696
X123.813 Y2.675
X123.773 Y2.653
X123.738 Y2.635
X123.716 Y2.625
X123.713 Y2.623
X123.673 Y2.608
X123.632 Y2.593
X123.590 Y2.578
X123.551 Y2.566
X123.507 Y2.554
X123.466 Y2.543
X123.461 Y2.542
X123.440 Y2.538
X123.396 Y2.531
X123.354 Y2.526
X123.314 Y2.521
X123.268 Y2.517
X123.223 Y2.514
X123.177 Y2.513
X123.141 Y2.512
X3.860 Y2.512
X3.823 Y2.513
X3.777 Y2.514
X3.732 Y2.517
X3.688 Y2.521
X3.644 Y2.526
X3.602 Y2.531
X3.560 Y2.538
X3.539 Y2.542
X3.492 Y2.554
X3.452 Y2.566
X3.408 Y2.579
X3.372 Y2.591
X3.326 Y2.608
X3.285 Y2.624
X3.262 Y2.635
X3.226 Y2.654
X3.185 Y2.676
X3.151 Y2.695
X3.113 Y2.718
X3.078 Y2.741
X3.044 Y2.764
X3.020 Y2.783
X2.988 Y2.809
X2.954 Y2.838
X2.920 Y2.869
X2.897 Y2.891
X2.857 Y2.931
X2.845 Y2.944
X2.844 Y2.945
X2.815 Y2.981
X2.788 Y3.014
X2.765 Y3.046
X2.736 Y3.087
X2.713 Y3.121
X2.690 Y3.156
X2.688 Y3.160
X2.677 Y3.180
X2.658 Y3.218
X2.639 Y3.257
X2.621 Y3.298
X2.605 Y3.335
X2.590 Y3.372
X2.575 Y3.414
X2.567 Y3.444
X2.557 Y3.484
X2.546 Y3.528
X2.538 Y3.566
X2.529 Y3.617
X2.524 Y3.651
X2.520 Y3.675
X2.520 Y3.679
X2.517 Y3.725
X2.516 Y3.770
X2.515 Y3.818
X2.515 Y97.782
X2.516 Y97.830
X2.517 Y97.877
X2.520 Y97.922
X2.520 Y97.923
X2.523 Y97.947
X2.529 Y97.984
X2.538 Y98.034
X2.546 Y98.072
X2.557 Y98.119
X2.567 Y98.155
X2.578 Y98.195
X2.588 Y98.223
X2.605 Y98.265
X2.622 Y98.304
X2.637 Y98.338
X2.658 Y98.382
X2.679 Y98.423
X2.689 Y98.441
X2.712 Y98.478
X2.736 Y98.514
X2.762 Y98.551
X2.789 Y98.586
X2.816 Y98.621
X2.844 Y98.655
X2.845 Y98.656
X2.856 Y98.668
X2.896 Y98.708
X2.920 Y98.731
X2.952 Y98.760
X2.989 Y98.792
X3.017 Y98.815
X3.053 Y98.843
X3.072 Y98.856
X3.114 Y98.882
X3.152 Y98.905
X3.186 Y98.925
X3.228 Y98.947
X3.262 Y98.965
X3.285 Y98.976
X3.287 Y98.976
X3.331 Y98.994
X3.369 Y99.008
X3.411 Y99.022
X3.449 Y99.034
X3.495 Y99.047
X3.534 Y99.057
X3.541 Y99.059
X3.556 Y99.061
X3.602 Y99.069
X3.649 Y99.075
X3.693 Y99.080
X3.729 Y99.083
X3.777 Y99.086
X3.823 Y99.087
X3.860 Y99.088
X27.965 Y99.088
X27.965 Y94.461
X27.902 Y94.445
X27.059 Y93.012
X27.475 Y91.403
X28.908 Y90.559
X30.518 Y90.975
X31.361 Y92.408
X30.945 Y94.017
X30.455 Y94.306
X30.455 Y99.088
X41.935 Y99.088
X41.935 Y77.431
X41.958 Y77.210
X42.039 Y76.962
X42.169 Y76.736
X42.344 Y76.542
X42.555 Y76.388
X42.794 Y76.282
X43.049 Y76.228
X46.288 Y76.228
X46.288 Y74.902
X39.345 Y74.902
X39.345 Y87.669
X39.322 Y87.890
X39.241 Y88.138
X39.111 Y88.364
X38.936 Y88.558
X38.725 Y88.712
X38.486 Y88.818
X38.231 Y88.872
X36.042 Y88.872
X36.025 Y88.938
X34.592 Y89.781
X32.983 Y89.365
X32.692 Y88.872
X25.882 Y88.872
X25.865 Y88.938
X24.432 Y89.781
X22.823 Y89.365
X21.979 Y87.932
X22.395 Y86.323
X23.828 Y85.479
X25.438 Y85.895
X25.728 Y86.388
X32.538 Y86.388
X32.555 Y86.323
X33.988 Y85.479
X35.598 Y85.895
X35.888 Y86.388
X36.855 Y86.388
X36.855 Y73.621
X36.878 Y73.400
X36.959 Y73.152
X37.090 Y72.926
X37.264 Y72.732
X37.475 Y72.578
X37.714 Y72.472
X37.969 Y72.418
X48.920 Y72.418
X48.920 Y44.411
X48.943 Y44.190
X49.024 Y43.942
X49.155 Y43.716
X49.329 Y43.522
X49.540 Y43.368
X49.779 Y43.262
X50.034 Y43.208
X50.296 Y43.208
X50.551 Y43.262
X50.790 Y43.368
X50.986 Y43.511
X54.940 Y43.511
X54.940 Y42.950
X54.938 Y42.952
X54.701 Y43.124
X54.434 Y43.243
X54.147 Y43.304
X52.533 Y43.304
X52.247 Y43.243
X51.979 Y43.124
X51.742 Y42.952
X51.546 Y42.734
X51.399 Y42.480
X51.309 Y42.201
X51.278 Y41.910
X51.309 Y41.619
X51.399 Y41.340
X51.546 Y41.086
X51.742 Y40.868
X51.979 Y40.696
X52.105 Y40.640
X51.979 Y40.584
X51.742 Y40.412
X51.546 Y40.194
X51.399 Y39.940
X51.309 Y39.661
X51.278 Y39.370
X51.309 Y39.079
X51.399 Y38.800
X51.546 Y38.546
X51.742 Y38.328
X51.979 Y38.156
X52.105 Y38.100
X51.979 Y38.044
X51.742 Y37.872
X51.546 Y37.654
X51.399 Y37.400
X51.309 Y37.121
X51.278 Y36.830
X51.309 Y36.539
X51.399 Y36.260
X51.546 Y36.006
X51.742 Y35.788
X51.979 Y35.616
X52.105 Y35.560
X51.979 Y35.504
X51.742 Y35.332
X51.546 Y35.114
X51.399 Y34.860
X51.309 Y34.581
X51.278 Y34.290
X51.309 Y33.999
X51.399 Y33.720
X51.546 Y33.466
X51.742 Y33.248
X51.979 Y33.076
X52.105 Y33.020
X51.979 Y32.964
X51.742 Y32.792
X51.546 Y32.574
X51.399 Y32.320
X51.309 Y32.041
X51.278 Y31.750
X51.309 Y31.459
X51.399 Y31.180
X51.546 Y30.926
X51.742 Y30.708
X51.979 Y30.536
X52.105 Y30.480
X51.979 Y30.424
X51.742 Y30.252
X51.546 Y30.034
X51.399 Y29.780
X51.309 Y29.501
X51.278 Y29.210
X51.309 Y28.919
X51.399 Y28.640
X51.546 Y28.386
X51.742 Y28.168
X51.979 Y27.996
X52.105 Y27.940
X51.979 Y27.884
X51.742 Y27.712
X51.546 Y27.494
X51.399 Y27.240
X51.309 Y26.961
X51.278 Y26.670
X51.309 Y26.379
X51.399 Y26.100
X51.546 Y25.846
X51.742 Y25.628
X51.979 Y25.456
X52.105 Y25.400
X51.979 Y25.344
X51.742 Y25.172
X51.546 Y24.954
X51.399 Y24.700
X51.309 Y24.421
X51.278 Y24.130
X51.309 Y23.839
X51.399 Y23.560
X51.546 Y23.306
X51.742 Y23.088
X51.979 Y22.916
X52.105 Y22.860
X51.979 Y22.804
X51.742 Y22.632
X51.546 Y22.414
X51.399 Y22.160
X51.309 Y21.881
X51.278 Y21.590
X51.309 Y21.299
X51.399 Y21.020
X51.546 Y20.766
X51.742 Y20.548
X51.979 Y20.376
X52.105 Y20.320
X51.979 Y20.264
X51.742 Y20.092
X51.546 Y19.874
X51.399 Y19.620
X51.309 Y19.341
X51.278 Y19.050
X51.309 Y18.759
X51.399 Y18.480
X51.546 Y18.226
X51.742 Y18.008
X51.979 Y17.836
X52.105 Y17.780
X52.043 Y17.752
X48.235 Y17.752
X48.235 Y71.159
X48.212 Y71.380
X48.131 Y71.628
X48.001 Y71.854
X47.826 Y72.048
X47.615 Y72.202
X47.376 Y72.308
X47.121 Y72.362
X35.027 Y72.362
X35.027 Y78.207
X3.073 Y78.207
X3.073 Y64.033
X35.027 Y64.033
X35.027 Y69.878
X45.745 Y69.878
X45.745 Y16.471
X45.768 Y16.250
X45.849 Y16.002
X45.980 Y15.776
X46.154 Y15.582
X46.365 Y15.428
X46.604 Y15.322
X46.859 Y15.268
X52.043 Y15.268
X52.105 Y15.240
X52.043 Y15.212
X45.695 Y15.212
X45.695 Y55.919
X45.672 Y56.140
X45.591 Y56.388
X45.461 Y56.614
X45.286 Y56.808
X45.075 Y56.962
X44.836 Y57.068
X44.581 Y57.122
X35.027 Y57.122
X35.027 Y62.967
X3.073 Y62.967
X3.073 Y48.793
X35.027 Y48.793
X35.027 Y54.638
X43.205 Y54.638
X43.205 Y13.931
X43.228 Y13.710
X43.309 Y13.462
X43.440 Y13.236
X43.614 Y13.042
X43.825 Y12.888
X44.064 Y12.782
X44.319 Y12.728
X52.043 Y12.728
X52.105 Y12.700
X52.043 Y12.672
X43.155 Y12.672
X43.155 Y40.679
X43.132 Y40.900
X43.051 Y41.148
X42.921 Y41.374
X42.746 Y41.568
X42.535 Y41.722
X42.296 Y41.828
X42.041 Y41.882
X35.027 Y41.882
X35.027 Y47.727
X3.073 Y47.727
X3.073 Y33.553
X35.027 Y33.553
X35.027 Y39.398
X40.665 Y39.398
X40.665 Y11.391
X40.688 Y11.170
X40.769 Y10.922
X40.900 Y10.696
X41.074 Y10.502
X41.285 Y10.348
X41.524 Y10.242
X41.779 Y10.188
X52.043 Y10.188
X52.105 Y10.160
X51.979 Y10.104
X51.742 Y9.932
X51.546 Y9.714
X51.399 Y9.460
X51.309 Y9.181
X51.278 Y8.890
X51.309 Y8.599
X51.399 Y8.320
X51.546 Y8.066
X51.742 Y7.848
X51.979 Y7.676
X52.167 Y7.592
X40.615 Y7.592
X40.615 Y25.439
X40.592 Y25.660
X40.511 Y25.908
X40.381 Y26.134
X40.206 Y26.328
X39.995 Y26.482
X39.756 Y26.588
X39.501 Y26.642
X35.027 Y26.642
X35.027 Y32.487
X3.073 Y32.487
X3.073 Y18.313
X35.027 Y18.313
X35.027 Y24.158
X38.125 Y24.158
X38.125 Y6.311
X38.148 Y6.090
X38.229 Y5.842
X38.360 Y5.616
X38.534 Y5.422
X38.745 Y5.268
X38.984 Y5.162
X39.239 Y5.108
X64.901 Y5.108
X65.156 Y5.162
X65.395 Y5.268
X65.606 Y5.422
X65.781 Y5.616
X65.911 Y5.842
X65.992 Y6.090
X66.015 Y6.311
X66.015 Y8.929
X65.992 Y9.150
X65.911 Y9.398
X65.781 Y9.624
X65.606 Y9.818
X65.395 Y9.972
X65.156 Y10.078
X64.901 Y10.132
X62.257 Y10.132
X62.195 Y10.160
X62.257 Y10.188
X67.335 Y10.188
X67.335 Y5.052
X38.075 Y5.052
X38.075 Y10.199
X38.052 Y10.420
X37.971 Y10.668
X37.840 Y10.894
X37.666 Y11.088
X37.455 Y11.242
X37.216 Y11.348
X36.961 Y11.402
X35.027 Y11.402
X35.027 Y17.247
X3.073 Y17.247
X3.073 Y3.073
X35.027 Y3.073
X35.027 Y8.918
X35.585 Y8.918
X35.585 Y3.771
X35.608 Y3.550
X35.689 Y3.302
X35.820 Y3.076
X35.994 Y2.882
X36.205 Y2.728
X36.444 Y2.622
X36.699 Y2.568
X68.711 Y2.568
X68.966 Y2.622
X69.205 Y2.728
X69.416 Y2.882
X69.591 Y3.076
X69.721 Y3.302
X69.802 Y3.550
X69.825 Y3.771
X69.825 Y11.469
X69.802 Y11.690
X69.721 Y11.938
X69.591 Y12.164
X69.416 Y12.358
X69.205 Y12.512
X68.966 Y12.618
X68.711 Y12.672
X62.257 Y12.672
X62.195 Y12.700
X62.257 Y12.728
X69.875 Y12.728
X69.875 Y10.121
X69.898 Y9.900
X69.979 Y9.652
X70.109 Y9.426
X70.284 Y9.232
X70.495 Y9.078
X70.734 Y8.972
X70.990 Y8.918
X71.174 Y8.918
X91.973 Y8.918
X91.973 Y3.073
X123.927 Y3.073
X123.927 Y17.247
X91.973 Y17.247
X91.973 Y11.402
X72.365 Y11.402
X72.365 Y14.009
X72.342 Y14.230
X72.261 Y14.478
X72.130 Y14.704
X71.956 Y14.898
X71.745 Y15.052
X71.506 Y15.158
X71.251 Y15.212
X62.257 Y15.212
X62.195 Y15.240
X62.257 Y15.268
X89.031 Y15.268
X89.286 Y15.322
X89.525 Y15.428
X89.736 Y15.582
X89.910 Y15.776
X90.041 Y16.002
X90.122 Y16.250
X90.145 Y16.471
X90.145 Y24.158
X91.973 Y24.158
X91.973 Y18.313
X123.927 Y18.313
X123.927 Y32.487
X91.973 Y32.487
X91.973 Y26.642
X88.769 Y26.642
X88.514 Y26.588
X88.275 Y26.482
X88.064 Y26.328
X87.889 Y26.134
X87.759 Y25.908
X87.678 Y25.660
X87.655 Y25.439
X87.655 Y17.752
X68.359 Y17.752
X68.985 Y18.815
X68.661 Y20.068
X68.339 Y20.258
X68.451 Y20.449
X69.970 Y20.449
X70.205 Y20.498
X70.424 Y20.596
X70.618 Y20.737
X70.778 Y20.915
X70.898 Y21.123
X70.972 Y21.352
X70.993 Y21.551
X70.993 Y26.709
X70.972 Y26.908
X70.898 Y27.137
X70.778 Y27.345
X70.618 Y27.523
X70.424 Y27.664
X70.205 Y27.762
X69.970 Y27.811
X64.650 Y27.811
X64.415 Y27.762
X64.196 Y27.664
X64.002 Y27.523
X63.842 Y27.345
X63.722 Y27.137
X63.648 Y26.908
X63.627 Y26.709
X63.627 Y25.271
X62.421 Y25.271
X62.321 Y25.344
X62.195 Y25.400
X62.321 Y25.456
X62.558 Y25.628
X62.754 Y25.846
X62.901 Y26.100
X62.991 Y26.379
X63.022 Y26.670
X62.991 Y26.961
X62.901 Y27.240
X62.754 Y27.494
X62.558 Y27.712
X62.321 Y27.884
X62.195 Y27.940
X62.257 Y27.968
X86.491 Y27.968
X86.746 Y28.022
X86.985 Y28.128
X87.196 Y28.282
X87.371 Y28.476
X87.501 Y28.702
X87.582 Y28.950
X87.605 Y29.171
X87.605 Y39.398
X91.973 Y39.398
X91.973 Y33.553
X123.927 Y33.553
X123.927 Y47.727
X91.973 Y47.727
X91.973 Y41.882
X86.229 Y41.882
X85.974 Y41.828
X85.735 Y41.722
X85.524 Y41.568
X85.350 Y41.374
X85.219 Y41.148
X85.138 Y40.900
X85.115 Y40.679
X85.115 Y30.452
X62.257 Y30.452
X62.195 Y30.480
X62.257 Y30.508
X83.951 Y30.508
X84.206 Y30.562
X84.445 Y30.668
X84.656 Y30.822
X84.831 Y31.016
X84.961 Y31.242
X85.042 Y31.490
X85.065 Y31.711
X85.065 Y54.638
X91.973 Y54.638
X91.973 Y48.793
X123.927 Y48.793
X123.927 Y62.967
X91.973 Y62.967
X91.973 Y57.122
X83.689 Y57.122
X83.434 Y57.068
X83.195 Y56.962
X82.984 Y56.808
X82.809 Y56.614
X82.679 Y56.388
X82.598 Y56.140
X82.575 Y55.919
X82.575 Y32.992
X62.257 Y32.992
X62.195 Y33.020
X62.257 Y33.048
X81.411 Y33.048
X81.666 Y33.102
X81.905 Y33.208
X82.116 Y33.362
X82.291 Y33.556
X82.421 Y33.782
X82.502 Y34.030
X82.525 Y34.251
X82.525 Y69.878
X91.973 Y69.878
X91.973 Y64.033
X123.927 Y64.033
X123.927 Y78.207
X91.973 Y78.207
X91.973 Y72.362
X81.149 Y72.362
X80.894 Y72.308
X80.655 Y72.202
X80.444 Y72.048
X80.270 Y71.854
X80.139 Y71.628
X80.058 Y71.380
X80.035 Y71.159
X80.035 Y35.532
X62.257 Y35.532
X62.195 Y35.560
X62.321 Y35.616
X62.421 Y35.689
X76.320 Y35.689
X76.555 Y35.739
X76.774 Y35.836
X76.968 Y35.977
X77.128 Y36.155
X77.248 Y36.363
X77.323 Y36.592
X77.343 Y36.791
X77.343 Y60.364
X77.323 Y60.563
X77.248 Y60.792
X77.128 Y61.000
X77.035 Y61.104
X77.035 Y61.312
X76.894 Y61.627
X76.638 Y61.858
X76.485 Y61.908
X76.494 Y61.936
X76.493 Y62.914
X76.638 Y62.961
X76.894 Y63.192
X77.035 Y63.507
X77.035 Y63.852
X76.894 Y64.167
X76.638 Y64.398
X76.405 Y64.473
X76.455 Y64.628
X76.638 Y64.687
X76.894 Y64.918
X77.035 Y65.233
X77.035 Y65.578
X76.894 Y65.893
X76.638 Y66.124
X76.466 Y66.180
X76.352 Y66.436
X76.096 Y66.667
X75.767 Y66.773
X75.424 Y66.737
X75.281 Y66.654
X75.257 Y66.707
X75.001 Y66.938
X74.711 Y67.032
X73.471 Y67.032
X73.245 Y67.008
X72.946 Y66.836
X72.784 Y66.613
X71.990 Y67.080
X70.737 Y66.756
X70.614 Y66.546
X65.507 Y66.546
X65.507 Y66.703
X66.806 Y66.703
X67.061 Y66.757
X67.300 Y66.863
X67.511 Y67.017
X67.686 Y67.211
X67.816 Y67.437
X67.897 Y67.685
X67.920 Y67.906
X67.920 Y73.688
X76.331 Y73.688
X76.586 Y73.742
X76.825 Y73.848
X77.036 Y74.002
X77.211 Y74.196
X77.341 Y74.422
X77.422 Y74.670
X77.445 Y74.891
X77.445 Y86.893
X80.112 Y86.893
X80.112 Y93.447
X73.558 Y93.447
X73.558 Y86.893
X74.955 Y86.893
X74.955 Y76.172
X66.544 Y76.172
X66.289 Y76.118
X66.050 Y76.012
X65.839 Y75.858
X65.665 Y75.664
X65.534 Y75.438
X65.453 Y75.190
X65.430 Y74.969
X65.430 Y71.857
X61.493 Y71.857
X61.493 Y64.033
X62.357 Y64.033
X62.357 Y61.899
X58.321 Y61.899
X58.128 Y61.858
X57.948 Y61.778
X57.788 Y61.662
X57.656 Y61.515
X57.557 Y61.344
X57.496 Y61.156
X57.480 Y60.998
X57.479 Y47.872
X57.442 Y47.888
X57.249 Y47.929
X53.950 Y47.929
X53.950 Y77.509
X53.927 Y77.730
X53.846 Y77.978
X53.716 Y78.204
X53.541 Y78.398
X53.330 Y78.552
X53.091 Y78.658
X52.836 Y78.712
X52.574 Y78.712
X52.388 Y78.673
X52.201 Y78.712
X44.425 Y78.712
X44.425 Y100.369
X44.402 Y100.590
X44.321 Y100.838
X44.191 Y101.064
X44.016 Y101.258
X43.805 Y101.412
X43.566 Y101.518
X43.311 Y101.572
X3.753 Y101.572
G0 Z3.000
G0  X53.873 Y98.527
G0  Z3.000
G01 F400 Z0
G01 F400 Z-0.100
G01F400X53.873 Y79.273
X73.127 Y79.273
X73.127 Y95.278
X85.750 Y95.278
X85.750 Y93.447
X83.718 Y93.447
X83.718 Y86.893
X90.272 Y86.893
X90.272 Y93.447
X88.240 Y93.447
X88.240 Y96.559
X88.217 Y96.780
X88.136 Y97.028
X88.005 Y97.254
X87.831 Y97.448
X87.620 Y97.602
X87.381 Y97.708
X87.126 Y97.762
X73.127 Y97.762
X73.127 Y98.527
X53.873 Y98.527
G0 Z3.000
G0  X46.888 Y93.447
G0  Z3.000
G01 F400 Z0
G01 F400 Z-0.100
G01F400X46.888 Y86.893
X53.442 Y86.893
X53.442 Y93.447
X46.888 Y93.447
G0 Z3.000
G0  X110.388 Y93.447
G0  Z3.000
G01 F400 Z0
G01 F400 Z-0.100
G01F400X110.388 Y86.893
X116.942 Y86.893
X116.942 Y93.447
X110.388 Y93.447
G0 Z3.000
G0  X48.962 Y76.228
G0  Z3.000
G01 F400 Z0
G01 F400 Z-0.100
G01F400X51.460 Y76.228
X51.460 Y46.951
X51.483 Y46.730
X51.564 Y46.482
X51.695 Y46.256
X51.869 Y46.062
X52.080 Y45.908
X52.319 Y45.802
X52.574 Y45.748
X52.836 Y45.748
X53.091 Y45.802
X53.330 Y45.908
X53.526 Y46.051
X56.210 Y46.051
X56.210 Y45.331
X56.172 Y45.348
X55.979 Y45.389
X51.410 Y45.389
X51.410 Y73.699
X51.387 Y73.920
X51.306 Y74.168
X51.175 Y74.394
X51.001 Y74.588
X50.790 Y74.742
X50.551 Y74.848
X50.296 Y74.902
X48.962 Y74.902
X48.962 Y76.228
G0 Z3.000
G0  X56.413 Y71.857
G0  Z3.000
G01 F400 Z0
G01 F400 Z-0.100
G01F400X56.413 Y64.033
X60.427 Y64.033
X60.427 Y71.857
X56.413 Y71.857
G0 Z3.000
G0  X72.916 Y64.298
G0  Z3.000
G01 F400 Z0
G01 F400 Z-0.100
G01F400X73.285 Y63.930
X73.245 Y63.926
X73.114 Y63.851
X73.106 Y63.883
X72.784 Y64.073
X72.916 Y64.298
G0 Z3.000
G0  X65.507 Y64.264
G0  Z3.000
G01 F400 Z0
G01 F400 Z-0.100
G01F400X70.614 Y64.264
X70.726 Y64.197
X70.614 Y64.006
X69.095 Y64.006
X68.860 Y63.957
X68.641 Y63.859
X68.447 Y63.718
X68.287 Y63.540
X68.167 Y63.332
X68.093 Y63.103
X68.072 Y62.904
X68.072 Y51.616
X67.883 Y52.345
X66.886 Y52.933
X65.765 Y52.643
X65.177 Y51.646
X65.467 Y50.525
X65.532 Y50.487
X65.532 Y45.591
X64.666 Y45.591
X63.737 Y46.139
X62.474 Y45.812
X62.344 Y45.591
X60.840 Y45.591
X60.605 Y45.541
X60.386 Y45.444
X60.192 Y45.303
X60.032 Y45.125
X59.912 Y44.917
X59.838 Y44.688
X59.817 Y44.489
X59.817 Y43.221
X59.599 Y43.124
X59.362 Y42.952
X59.360 Y42.950
X59.360 Y60.021
X62.357 Y60.021
X62.357 Y55.773
X61.812 Y54.847
X62.138 Y53.584
X62.547 Y53.343
X62.572 Y53.300
X62.732 Y53.122
X62.926 Y52.981
X63.145 Y52.884
X63.380 Y52.834
X63.620 Y52.834
X63.855 Y52.884
X64.074 Y52.981
X64.268 Y53.122
X64.338 Y53.200
X64.526 Y53.248
X65.189 Y54.373
X64.862 Y55.636
X64.643 Y55.765
X64.643 Y64.033
X65.507 Y64.033
X65.507 Y64.264
G0 Z3.000
G0  X74.005 Y63.779
G0  Z3.000
G01 F400 Z0
G01 F400 Z-0.100
G01F400X74.079 Y63.779
X74.042 Y63.743
X74.005 Y63.779
G0 Z3.000
G0  X70.358 Y61.724
G0  Z3.000
G01 F400 Z0
G01 F400 Z-0.100
G01F400X70.614 Y61.724
X70.726 Y61.657
X70.358 Y61.033
X70.358 Y61.724
G0 Z3.000
G0  X72.825 Y61.602
G0  Z3.000
G01 F400 Z0
G01 F400 Z-0.100
G01F400X72.924 Y61.466
X72.896 Y61.466
X72.784 Y61.533
X72.825 Y61.602
G0 Z3.000
G0  X70.358 Y59.484
G0  Z3.000
G01 F400 Z0
G01 F400 Z-0.100
G01F400X70.404 Y59.307
X70.726 Y59.117
X70.358 Y58.493
X70.358 Y59.484
G0 Z3.000
G0  X72.825 Y59.062
G0  Z3.000
G01 F400 Z0
G01 F400 Z-0.100
G01F400X72.935 Y58.911
X72.930 Y58.907
X72.784 Y58.993
X72.825 Y59.062
G0 Z3.000
G0  X70.358 Y56.944
G0  Z3.000
G01 F400 Z0
G01 F400 Z-0.100
G01F400X70.404 Y56.767
X70.610 Y56.646
X70.589 Y52.209
X70.358 Y51.817
X70.358 Y56.944
G0 Z3.000
G0  X72.898 Y56.421
G0  Z3.000
G01 F400 Z0
G01 F400 Z-0.100
G01F400X72.946 Y56.355
X73.245 Y56.183
X73.629 Y56.143
X73.977 Y56.298
X74.033 Y56.354
X74.330 Y56.183
X74.673 Y56.147
X75.001 Y56.254
X75.057 Y56.304
X75.057 Y37.971
X62.421 Y37.971
X62.321 Y38.044
X62.195 Y38.100
X62.321 Y38.156
X62.421 Y38.229
X69.335 Y38.229
X69.570 Y38.279
X69.789 Y38.376
X69.983 Y38.517
X70.143 Y38.695
X70.263 Y38.903
X70.338 Y39.132
X70.358 Y39.331
X70.358 Y51.254
X70.547 Y50.525
X71.544 Y49.937
X72.665 Y50.227
X73.253 Y51.224
X72.963 Y52.345
X72.898 Y52.383
X72.898 Y56.421
G0 Z3.000
G0  X68.072 Y51.053
G0  Z3.000
G01 F400 Z0
G01 F400 Z-0.100
G01F400X68.072 Y40.511
X62.421 Y40.511
X62.321 Y40.584
X62.195 Y40.640
X62.321 Y40.696
X62.558 Y40.868
X62.754 Y41.086
X62.901 Y41.340
X62.991 Y41.619
X63.022 Y41.910
X62.991 Y42.201
X62.901 Y42.480
X62.754 Y42.734
X62.558 Y42.952
X62.321 Y43.124
X62.103 Y43.221
X62.103 Y43.309
X62.334 Y43.309
X63.263 Y42.762
X64.526 Y43.088
X64.656 Y43.309
X66.795 Y43.309
X67.030 Y43.358
X67.249 Y43.456
X67.443 Y43.597
X67.603 Y43.775
X67.723 Y43.983
X67.797 Y44.212
X67.818 Y44.410
X67.841 Y50.662
X68.072 Y51.053
G0 Z3.000
G0  X54.940 Y40.870
G0  Z3.000
G01 F400 Z0
G01 F400 Z-0.100
G01F400X54.940 Y40.410
X54.938 Y40.412
X54.701 Y40.584
X54.575 Y40.640
X54.701 Y40.696
X54.938 Y40.868
X54.940 Y40.870
G0 Z3.000
G0  X59.360 Y40.870
G0  Z3.000
G01 F400 Z0
G01 F400 Z-0.100
G01F400X59.362 Y40.868
X59.599 Y40.696
X59.725 Y40.640
X59.599 Y40.584
X59.362 Y40.412
X59.360 Y40.410
X59.360 Y40.870
G0 Z3.000
G0  X54.940 Y38.330
G0  Z3.000
G01 F400 Z0
G01 F400 Z-0.100
G01F400X54.940 Y37.870
X54.938 Y37.872
X54.701 Y38.044
X54.575 Y38.100
X54.701 Y38.156
X54.938 Y38.328
X54.940 Y38.330
G0 Z3.000
G0  X59.360 Y38.330
G0  Z3.000
G01 F400 Z0
G01 F400 Z-0.100
G01F400X59.362 Y38.328
X59.599 Y38.156
X59.725 Y38.100
X59.599 Y38.044
X59.362 Y37.872
X59.360 Y37.870
X59.360 Y38.330
G0 Z3.000
G0  X54.940 Y35.790
G0  Z3.000
G01 F400 Z0
G01 F400 Z-0.100
G01F400X54.940 Y35.330
X54.938 Y35.332
X54.701 Y35.504
X54.575 Y35.560
X54.701 Y35.616
X54.938 Y35.788
X54.940 Y35.790
G0 Z3.000
G0  X59.360 Y35.790
G0  Z3.000
G01 F400 Z0
G01 F400 Z-0.100
G01F400X59.362 Y35.788
X59.599 Y35.616
X59.725 Y35.560
X59.599 Y35.504
X59.362 Y35.332
X59.360 Y35.330
X59.360 Y35.790
G0 Z3.000
G0  X54.940 Y33.250
G0  Z3.000
G01 F400 Z0
G01 F400 Z-0.100
G01F400X54.940 Y32.790
X54.938 Y32.792
X54.701 Y32.964
X54.575 Y33.020
X54.701 Y33.076
X54.938 Y33.248
X54.940 Y33.250
G0 Z3.000
G0  X59.360 Y33.250
G0  Z3.000
G01 F400 Z0
G01 F400 Z-0.100
G01F400X59.362 Y33.248
X59.599 Y33.076
X59.725 Y33.020
X59.599 Y32.964
X59.362 Y32.792
X59.360 Y32.790
X59.360 Y33.250
G0 Z3.000
G0  X54.940 Y30.710
G0  Z3.000
G01 F400 Z0
G01 F400 Z-0.100
G01F400X54.940 Y30.250
X54.938 Y30.252
X54.701 Y30.424
X54.575 Y30.480
X54.701 Y30.536
X54.938 Y30.708
X54.940 Y30.710
G0 Z3.000
G0  X59.360 Y30.710
G0  Z3.000
G01 F400 Z0
G01 F400 Z-0.100
G01F400X59.362 Y30.708
X59.599 Y30.536
X59.725 Y30.480
X59.599 Y30.424
X59.362 Y30.252
X59.360 Y30.250
X59.360 Y30.710
G0 Z3.000
G0  X54.940 Y28.170
G0  Z3.000
G01 F400 Z0
G01 F400 Z-0.100
G01F400X54.940 Y27.710
X54.938 Y27.712
X54.701 Y27.884
X54.575 Y27.940
X54.701 Y27.996
X54.938 Y28.168
X54.940 Y28.170
G0 Z3.000
G0  X59.360 Y28.170
G0  Z3.000
G01 F400 Z0
G01 F400 Z-0.100
G01F400X59.362 Y28.168
X59.599 Y27.996
X59.725 Y27.940
X59.599 Y27.884
X59.362 Y27.712
X59.360 Y27.710
X59.360 Y28.170
G0 Z3.000
G0  X58.090 Y25.734
G0  Z3.000
G01 F400 Z0
G01 F400 Z-0.100
G01F400X58.112 Y25.724
X58.312 Y25.681
X59.325 Y25.669
X59.362 Y25.628
X59.599 Y25.456
X59.725 Y25.400
X59.599 Y25.344
X59.362 Y25.172
X59.270 Y25.069
X58.090 Y25.069
X58.090 Y25.734
G0 Z3.000
G0  X54.940 Y25.630
G0  Z3.000
G01 F400 Z0
G01 F400 Z-0.100
G01F400X54.940 Y25.170
X54.938 Y25.172
X54.701 Y25.344
X54.575 Y25.400
X54.701 Y25.456
X54.938 Y25.628
X54.940 Y25.630
G0 Z3.000
G0  X65.913 Y25.529
G0  Z3.000
G01 F400 Z0
G01 F400 Z-0.100
G01F400X66.478 Y25.529
X66.292 Y25.481
X65.913 Y24.838
X65.913 Y25.529
G0 Z3.000
G0  X68.014 Y25.529
G0  Z3.000
G01 F400 Z0
G01 F400 Z-0.100
G01F400X68.707 Y25.529
X68.707 Y24.971
X68.661 Y25.148
X68.014 Y25.529
G0 Z3.000
G0  X68.707 Y23.422
G0  Z3.000
G01 F400 Z0
G01 F400 Z-0.100
G01F400X68.707 Y22.731
X68.451 Y22.731
X68.339 Y22.798
X68.707 Y23.422
G0 Z3.000
G0  X56.820 Y23.249
G0  Z3.000
G01 F400 Z0
G01 F400 Z-0.100
G01F400X56.858 Y23.232
X57.051 Y23.191
X59.270 Y23.191
X59.362 Y23.088
X59.599 Y22.916
X59.725 Y22.860
X59.599 Y22.804
X59.362 Y22.632
X59.166 Y22.414
X59.019 Y22.160
X58.929 Y21.881
X58.898 Y21.590
X58.929 Y21.299
X59.019 Y21.020
X59.166 Y20.766
X59.362 Y20.548
X59.599 Y20.376
X59.725 Y20.320
X59.599 Y20.264
X59.362 Y20.092
X59.166 Y19.874
X59.019 Y19.620
X58.929 Y19.341
X58.898 Y19.050
X58.929 Y18.759
X59.019 Y18.480
X59.166 Y18.226
X59.362 Y18.008
X59.599 Y17.836
X59.725 Y17.780
X59.599 Y17.724
X59.362 Y17.552
X59.166 Y17.334
X59.019 Y17.080
X58.929 Y16.801
X58.898 Y16.510
X58.929 Y16.219
X59.019 Y15.940
X59.166 Y15.686
X59.362 Y15.468
X59.599 Y15.296
X59.725 Y15.240
X59.599 Y15.184
X59.362 Y15.012
X59.166 Y14.794
X59.019 Y14.540
X58.929 Y14.261
X58.898 Y13.970
X58.929 Y13.679
X59.019 Y13.400
X59.166 Y13.146
X59.362 Y12.928
X59.599 Y12.756
X59.725 Y12.700
X59.599 Y12.644
X59.362 Y12.472
X59.166 Y12.254
X59.019 Y12.000
X58.929 Y11.721
X58.898 Y11.430
X58.929 Y11.139
X59.019 Y10.860
X59.166 Y10.606
X59.362 Y10.388
X59.599 Y10.216
X59.725 Y10.160
X59.599 Y10.104
X59.362 Y9.932
X59.166 Y9.714
X59.019 Y9.460
X58.929 Y9.181
X58.898 Y8.890
X58.929 Y8.599
X59.019 Y8.320
X59.166 Y8.066
X59.362 Y7.848
X59.599 Y7.676
X59.787 Y7.592
X54.513 Y7.592
X54.701 Y7.676
X54.938 Y7.848
X55.031 Y7.951
X55.979 Y7.951
X56.172 Y7.992
X56.352 Y8.072
X56.512 Y8.188
X56.644 Y8.335
X56.743 Y8.506
X56.804 Y8.694
X56.820 Y8.852
X56.820 Y23.249
G0 Z3.000
G0  X54.940 Y23.090
G0  Z3.000
G01 F400 Z0
G01 F400 Z-0.100
G01F400X54.940 Y22.630
X54.938 Y22.632
X54.701 Y22.804
X54.575 Y22.860
X54.701 Y22.916
X54.938 Y23.088
X54.940 Y23.090
G0 Z3.000
G0  X62.421 Y22.989
G0  Z3.000
G01 F400 Z0
G01 F400 Z-0.100
G01F400X64.379 Y22.989
X63.804 Y22.529
X62.651 Y22.529
X62.558 Y22.632
X62.321 Y22.804
X62.195 Y22.860
X62.321 Y22.916
X62.421 Y22.989
G0 Z3.000
G0  X65.686 Y21.627
G0  Z3.000
G01 F400 Z0
G01 F400 Z-0.100
G01F400X65.959 Y20.572
X66.281 Y20.382
X66.169 Y20.191
X62.421 Y20.191
X62.321 Y20.264
X62.195 Y20.320
X62.321 Y20.376
X62.558 Y20.548
X62.651 Y20.651
X64.234 Y20.651
X64.427 Y20.692
X64.607 Y20.772
X64.718 Y20.853
X65.686 Y21.627
G0 Z3.000
G0  X54.940 Y20.550
G0  Z3.000
G01 F400 Z0
G01 F400 Z-0.100
G01F400X54.940 Y20.090
X54.938 Y20.092
X54.701 Y20.264
X54.575 Y20.320
X54.701 Y20.376
X54.938 Y20.548
X54.940 Y20.550
G0 Z3.000
G0  X54.940 Y18.010
G0  Z3.000
G01 F400 Z0
G01 F400 Z-0.100
G01F400X54.940 Y17.550
X54.938 Y17.552
X54.701 Y17.724
X54.575 Y17.780
X54.701 Y17.836
X54.938 Y18.008
X54.940 Y18.010
G0 Z3.000
G0  X62.421 Y17.909
G0  Z3.000
G01 F400 Z0
G01 F400 Z-0.100
G01F400X66.169 Y17.909
X66.434 Y17.752
X62.257 Y17.752
X62.195 Y17.780
X62.321 Y17.836
X62.421 Y17.909
G0 Z3.000
G0  X54.940 Y15.470
G0  Z3.000
G01 F400 Z0
G01 F400 Z-0.100
G01F400X54.940 Y15.010
X54.938 Y15.012
X54.701 Y15.184
X54.575 Y15.240
X54.701 Y15.296
X54.938 Y15.468
X54.940 Y15.470
G0 Z3.000
G0  X54.940 Y12.930
G0  Z3.000
G01 F400 Z0
G01 F400 Z-0.100
G01F400X54.940 Y12.470
X54.938 Y12.472
X54.701 Y12.644
X54.575 Y12.700
X54.701 Y12.756
X54.938 Y12.928
X54.940 Y12.930
G0 Z3.000
G0  X54.940 Y10.390
G0  Z3.000
G01 F400 Z0
G01 F400 Z-0.100
G01F400X54.940 Y9.930
X54.938 Y9.932
X54.701 Y10.104
X54.575 Y10.160
X54.701 Y10.216
X54.938 Y10.388
X54.940 Y10.390
G0 Z3.000
G0  X62.257 Y7.648
G0  Z3.000
G01 F400 Z0
G01 F400 Z-0.100
G01F400X63.525 Y7.648
X63.525 Y7.592
X62.133 Y7.592
X62.257 Y7.648
G0 Z3.000
M05
(  )
T112 M06
( Routing )
M03 S10000
G0  X-2.794 Y104.794
G0  Z3.000
G01 F200 Z0
G01 F200 Z-0.790
G01F200X-2.794 Y-2.794
X129.793 Y-2.794
X129.793 Y104.794
X-2.794 Y104.794
G0 Z3.000
M03 S10000
G0  X-2.794 Y104.794
G0  Z3.000
G01 F200 Z0
G01 F200 Z-1.580
G01F200X-2.794 Y-2.794
X129.793 Y-2.794
X129.793 Y104.794
X-2.794 Y104.794
G0 Z3.000
G00 Z3.000
M05
M30
%